( Made using CamBam - http://www.cambam.co.uk )
( Clamps 4/13/2014 11:22:43 )
( T0 : 0.1383 )
G20 G90 G64 G40
G0 Z0.125
( T0 : 0.1383 )
T0 M6
( Pocket1 )
G17
M3 S1000
G0 X1.2704 Y3.7175
G0 Z0.0625
G1 F5.0 Z-0.015
G2 F10.0 X1.2413 Y3.7007 I-0.0194 J0.0
G2 Y3.7344 I0.0097 J0.0168
G2 X1.2704 Y3.7175 I0.0097 J-0.0168
G1 F5.0 Z-0.03
G2 F10.0 X1.2413 Y3.7007 I-0.0194 J0.0
G2 Y3.7344 I0.0097 J0.0168
G2 X1.2704 Y3.7175 I0.0097 J-0.0168
G1 F5.0 Z-0.045
G2 F10.0 X1.2413 Y3.7007 I-0.0194 J0.0
G2 Y3.7344 I0.0097 J0.0168
G2 X1.2704 Y3.7175 I0.0097 J-0.0168
G1 F5.0 Z-0.06
G2 F10.0 X1.2413 Y3.7007 I-0.0194 J0.0
G2 Y3.7344 I0.0097 J0.0168
G2 X1.2704 Y3.7175 I0.0097 J-0.0168
G1 F5.0 Z-0.075
G2 F10.0 X1.2413 Y3.7007 I-0.0194 J0.0
G2 Y3.7344 I0.0097 J0.0168
G2 X1.2704 Y3.7175 I0.0097 J-0.0168
G1 F5.0 Z-0.09
G2 F10.0 X1.2413 Y3.7007 I-0.0194 J0.0
G2 Y3.7344 I0.0097 J0.0168
G2 X1.2704 Y3.7175 I0.0097 J-0.0168
G1 F5.0 Z-0.105
G2 F10.0 X1.2413 Y3.7007 I-0.0194 J0.0
G2 Y3.7344 I0.0097 J0.0168
G2 X1.2704 Y3.7175 I0.0097 J-0.0168
G1 F5.0 Z-0.12
G2 F10.0 X1.2413 Y3.7007 I-0.0194 J0.0
G2 Y3.7344 I0.0097 J0.0168
G2 X1.2704 Y3.7175 I0.0097 J-0.0168
G1 F5.0 Z-0.135
G2 F10.0 X1.2413 Y3.7007 I-0.0194 J0.0
G2 Y3.7344 I0.0097 J0.0168
G2 X1.2704 Y3.7175 I0.0097 J-0.0168
G1 F5.0 Z-0.15
G2 F10.0 X1.2413 Y3.7007 I-0.0194 J0.0
G2 Y3.7344 I0.0097 J0.0168
G2 X1.2704 Y3.7175 I0.0097 J-0.0168
( Profile1 )
S1000
G0 Z0.125
G0 X1.3 Y2.8907
G0 Z0.0625
G1 F5.0 Z0.0
G1 F10.0 Y0.7648 Z-0.007
G2 X1.202 Z-0.0075 I-0.049 J0.0
G1 Y2.8907 Z-0.0145
G2 X1.3 Z-0.015 I0.049 J0.0
G1 Y0.7648 Z-0.022
G2 X1.202 Z-0.0225 I-0.049 J0.0
G1 Y2.8907 Z-0.0295
G2 X1.3 Z-0.03 I0.049 J0.0
G1 Y0.7648 Z-0.037
G2 X1.202 Z-0.0375 I-0.049 J0.0
G1 Y2.8907 Z-0.0445
G2 X1.3 Z-0.045 I0.049 J0.0
G1 Y0.7648 Z-0.052
G2 X1.202 Z-0.0525 I-0.049 J0.0
G1 Y2.8907 Z-0.0595
G2 X1.3 Z-0.06 I0.049 J0.0
G1 Y0.7648 Z-0.067
G2 X1.202 Z-0.0675 I-0.049 J0.0
G1 Y2.8907 Z-0.0745
G2 X1.3 Z-0.075 I0.049 J0.0
G1 Y0.7648 Z-0.082
G2 X1.202 Z-0.0825 I-0.049 J0.0
G1 Y2.8907 Z-0.0895
G2 X1.3 Z-0.09 I0.049 J0.0
G1 Y0.7648 Z-0.097
G2 X1.202 Z-0.0975 I-0.049 J0.0
G1 Y2.8907 Z-0.1045
G2 X1.3 Z-0.105 I0.049 J0.0
G1 Y0.7648 Z-0.112
G2 X1.202 Z-0.1125 I-0.049 J0.0
G1 Y2.8907 Z-0.1195
G2 X1.3 Z-0.12 I0.049 J0.0
G1 Y0.7648 Z-0.127
G2 X1.202 Z-0.1275 I-0.049 J0.0
G1 Y2.8907 Z-0.1345
G2 X1.3 Z-0.135 I0.049 J0.0
G1 Y0.7648 Z-0.142
G2 X1.202 Z-0.1425 I-0.049 J0.0
G1 Y2.8907 Z-0.1495
G2 X1.3 Z-0.15 I0.049 J0.0
G1 Y0.7648
G2 X1.202 I-0.049 J0.0
G1 Y2.8907
G2 X1.3 I0.049 J0.0
( Profile2 )
S1000
G0 Z0.125
G0 X1.2116 Y4.1804
G0 Z0.0625
G1 F5.0 Z0.0
G3 F10.0 X0.5913 Y3.56 Z-0.0015 I0.0 J-0.6203
G1 Y0.7254 Z-0.0059
G3 X1.2116 Y0.1051 Z-0.0074 I0.6203 J0.0
G1 X1.2904 Z-0.0075
G3 X1.9107 Y0.7254 Z-0.009 I0.0 J0.6203
G1 Y3.56 Z-0.0134
G3 X1.2904 Y4.1804 Z-0.0149 I-0.6203 J0.0
G1 X1.2116 Z-0.015
G3 X0.5913 Y3.56 Z-0.0165 I0.0 J-0.6203
G1 Y0.7254 Z-0.0209
G3 X1.2116 Y0.1051 Z-0.0224 I0.6203 J0.0
G1 X1.2904 Z-0.0225
G3 X1.9107 Y0.7254 Z-0.024 I0.0 J0.6203
G1 Y3.56 Z-0.0284
G3 X1.2904 Y4.1804 Z-0.0299 I-0.6203 J0.0
G1 X1.2116 Z-0.03
G3 X0.5913 Y3.56 Z-0.0315 I0.0 J-0.6203
G1 Y0.7254 Z-0.0359
G3 X1.2116 Y0.1051 Z-0.0374 I0.6203 J0.0
G1 X1.2904 Z-0.0375
G3 X1.9107 Y0.7254 Z-0.039 I0.0 J0.6203
G1 Y3.56 Z-0.0434
G3 X1.2904 Y4.1804 Z-0.0449 I-0.6203 J0.0
G1 X1.2116 Z-0.045
G3 X0.5913 Y3.56 Z-0.0465 I0.0 J-0.6203
G1 Y0.7254 Z-0.0509
G3 X1.2116 Y0.1051 Z-0.0524 I0.6203 J0.0
G1 X1.2904 Z-0.0525
G3 X1.9107 Y0.7254 Z-0.054 I0.0 J0.6203
G1 Y3.56 Z-0.0584
G3 X1.2904 Y4.1804 Z-0.0599 I-0.6203 J0.0
G1 X1.2116 Z-0.06
G3 X0.5913 Y3.56 Z-0.0615 I0.0 J-0.6203
G1 Y0.7254 Z-0.0659
G3 X1.2116 Y0.1051 Z-0.0674 I0.6203 J0.0
G1 X1.2904 Z-0.0675
G3 X1.9107 Y0.7254 Z-0.069 I0.0 J0.6203
G1 Y3.56 Z-0.0734
G3 X1.2904 Y4.1804 Z-0.0749 I-0.6203 J0.0
G1 X1.2116 Z-0.075
G3 X0.5913 Y3.56 Z-0.0765 I0.0 J-0.6203
G1 Y0.7254 Z-0.0809
G3 X1.2116 Y0.1051 Z-0.0824 I0.6203 J0.0
G1 X1.2904 Z-0.0825
G3 X1.9107 Y0.7254 Z-0.084 I0.0 J0.6203
G1 Y3.56 Z-0.0884
G3 X1.2904 Y4.1804 Z-0.0899 I-0.6203 J0.0
G1 X1.2116 Z-0.09
G3 X0.5913 Y3.56 Z-0.0915 I0.0 J-0.6203
G1 Y0.7254 Z-0.0959
G3 X1.2116 Y0.1051 Z-0.0974 I0.6203 J0.0
G1 X1.2904 Z-0.0975
G3 X1.9107 Y0.7254 Z-0.099 I0.0 J0.6203
G1 Y3.56 Z-0.1034
G3 X1.2904 Y4.1804 Z-0.1049 I-0.6203 J0.0
G1 X1.2116 Z-0.105
G3 X0.5913 Y3.56 Z-0.1065 I0.0 J-0.6203
G1 Y0.7254 Z-0.1109
G3 X1.2116 Y0.1051 Z-0.1124 I0.6203 J0.0
G1 X1.2904 Z-0.1125
G3 X1.9107 Y0.7254 Z-0.114 I0.0 J0.6203
G1 Y3.56 Z-0.1184
G3 X1.2904 Y4.1804 Z-0.1199 I-0.6203 J0.0
G1 X1.2116 Z-0.12
G3 X0.5913 Y3.56 Z-0.1215 I0.0 J-0.6203
G1 Y0.7254 Z-0.1259
G3 X1.2116 Y0.1051 Z-0.1274 I0.6203 J0.0
G1 X1.2904 Z-0.1275
G3 X1.9107 Y0.7254 Z-0.129 I0.0 J0.6203
G1 Y3.56 Z-0.1334
G3 X1.2904 Y4.1804 Z-0.1349 I-0.6203 J0.0
G1 X1.2116 Z-0.135
G3 X0.5913 Y3.56 Z-0.1365 I0.0 J-0.6203
G1 Y0.7254 Z-0.1409
G3 X1.2116 Y0.1051 Z-0.1424 I0.6203 J0.0
G1 X1.2904 Z-0.1425
G3 X1.9107 Y0.7254 Z-0.144 I0.0 J0.6203
G1 Y3.56 Z-0.1484
G3 X1.2904 Y4.1804 Z-0.1499 I-0.6203 J0.0
G1 X1.2116 Z-0.15
G3 X0.5913 Y3.56 I0.0 J-0.6203
G1 Y0.7254
G3 X1.2116 Y0.1051 I0.6203 J0.0
G1 X1.2904
G3 X1.9107 Y0.7254 I0.0 J0.6203
G1 Y3.56
G3 X1.2904 Y4.1804 I-0.6203 J0.0
G1 X1.2116
G0 Z0.125
M5
M30
