( Made using CamBam - http://www.cambam.co.uk )
( Clamps2 4/13/2014 13:13:53 )
( T0 : 0.1383 )
G20 G90 G64 G40
G0 Z0.125
( T0 : 0.1383 )
T0 M6
( Pocket1 )
G17
M3 S1000
G0 X0.7084 Y3.6417
G0 Z0.0625
G1 F1.0 Z-0.015
G2 F10.0 X0.6793 Y3.6249 I-0.0194 J0.0
G2 Y3.6586 I0.0097 J0.0168
G2 X0.7084 Y3.6417 I0.0097 J-0.0168
G1 F1.0 Z-0.03
G2 F10.0 X0.6793 Y3.6249 I-0.0194 J0.0
G2 Y3.6586 I0.0097 J0.0168
G2 X0.7084 Y3.6417 I0.0097 J-0.0168
G1 F1.0 Z-0.045
G2 F10.0 X0.6793 Y3.6249 I-0.0194 J0.0
G2 Y3.6586 I0.0097 J0.0168
G2 X0.7084 Y3.6417 I0.0097 J-0.0168
G1 F1.0 Z-0.06
G2 F10.0 X0.6793 Y3.6249 I-0.0194 J0.0
G2 Y3.6586 I0.0097 J0.0168
G2 X0.7084 Y3.6417 I0.0097 J-0.0168
G1 F1.0 Z-0.075
G2 F10.0 X0.6793 Y3.6249 I-0.0194 J0.0
G2 Y3.6586 I0.0097 J0.0168
G2 X0.7084 Y3.6417 I0.0097 J-0.0168
G1 F1.0 Z-0.09
G2 F10.0 X0.6793 Y3.6249 I-0.0194 J0.0
G2 Y3.6586 I0.0097 J0.0168
G2 X0.7084 Y3.6417 I0.0097 J-0.0168
G1 F1.0 Z-0.105
G2 F10.0 X0.6793 Y3.6249 I-0.0194 J0.0
G2 Y3.6586 I0.0097 J0.0168
G2 X0.7084 Y3.6417 I0.0097 J-0.0168
G1 F1.0 Z-0.12
G2 F10.0 X0.6793 Y3.6249 I-0.0194 J0.0
G2 Y3.6586 I0.0097 J0.0168
G2 X0.7084 Y3.6417 I0.0097 J-0.0168
G1 F1.0 Z-0.135
G2 F10.0 X0.6793 Y3.6249 I-0.0194 J0.0
G2 Y3.6586 I0.0097 J0.0168
G2 X0.7084 Y3.6417 I0.0097 J-0.0168
G1 F1.0 Z-0.15
G2 F10.0 X0.6793 Y3.6249 I-0.0194 J0.0
G2 Y3.6586 I0.0097 J0.0168
G2 X0.7084 Y3.6417 I0.0097 J-0.0168
G1 F1.0 Z-0.165
G2 F10.0 X0.6793 Y3.6249 I-0.0194 J0.0
G2 Y3.6586 I0.0097 J0.0168
G2 X0.7084 Y3.6417 I0.0097 J-0.0168
G1 F1.0 Z-0.18
G2 F10.0 X0.6793 Y3.6249 I-0.0194 J0.0
G2 Y3.6586 I0.0097 J0.0168
G2 X0.7084 Y3.6417 I0.0097 J-0.0168
( Profile1 )
S1000
G0 Z0.125
G0 X0.7283 Y0.64
G0 Z0.0625
G1 F1.0 Z-0.015
G1 F10.0 X0.6496
G2 X0.64 Y0.6496 I0.0 J0.0096
G1 Y2.8543
G2 X0.6496 Y2.8639 I0.0096 J0.0
G1 X0.7283
G2 X0.7379 Y2.8543 I0.0 J-0.0096
G1 Y0.6496
G2 X0.7283 Y0.64 I-0.0096 J0.0
G1 F1.0 Z-0.03
G1 F10.0 X0.6496
G2 X0.64 Y0.6496 I0.0 J0.0096
G1 Y2.8543
G2 X0.6496 Y2.8639 I0.0096 J0.0
G1 X0.7283
G2 X0.7379 Y2.8543 I0.0 J-0.0096
G1 Y0.6496
G2 X0.7283 Y0.64 I-0.0096 J0.0
G1 F1.0 Z-0.045
G1 F10.0 X0.6496
G2 X0.64 Y0.6496 I0.0 J0.0096
G1 Y2.8543
G2 X0.6496 Y2.8639 I0.0096 J0.0
G1 X0.7283
G2 X0.7379 Y2.8543 I0.0 J-0.0096
G1 Y0.6496
G2 X0.7283 Y0.64 I-0.0096 J0.0
G1 F1.0 Z-0.06
G1 F10.0 X0.6496
G2 X0.64 Y0.6496 I0.0 J0.0096
G1 Y2.8543
G2 X0.6496 Y2.8639 I0.0096 J0.0
G1 X0.7283
G2 X0.7379 Y2.8543 I0.0 J-0.0096
G1 Y0.6496
G2 X0.7283 Y0.64 I-0.0096 J0.0
G1 F1.0 Z-0.075
G1 F10.0 X0.6496
G2 X0.64 Y0.6496 I0.0 J0.0096
G1 Y2.8543
G2 X0.6496 Y2.8639 I0.0096 J0.0
G1 X0.7283
G2 X0.7379 Y2.8543 I0.0 J-0.0096
G1 Y0.6496
G2 X0.7283 Y0.64 I-0.0096 J0.0
G1 F1.0 Z-0.09
G1 F10.0 X0.6496
G2 X0.64 Y0.6496 I0.0 J0.0096
G1 Y2.8543
G2 X0.6496 Y2.8639 I0.0096 J0.0
G1 X0.7283
G2 X0.7379 Y2.8543 I0.0 J-0.0096
G1 Y0.6496
G2 X0.7283 Y0.64 I-0.0096 J0.0
G1 F1.0 Z-0.105
G1 F10.0 X0.6496
G2 X0.64 Y0.6496 I0.0 J0.0096
G1 Y2.8543
G2 X0.6496 Y2.8639 I0.0096 J0.0
G1 X0.7283
G2 X0.7379 Y2.8543 I0.0 J-0.0096
G1 Y0.6496
G2 X0.7283 Y0.64 I-0.0096 J0.0
G1 F1.0 Z-0.12
G1 F10.0 X0.6496
G2 X0.64 Y0.6496 I0.0 J0.0096
G1 Y2.8543
G2 X0.6496 Y2.8639 I0.0096 J0.0
G1 X0.7283
G2 X0.7379 Y2.8543 I0.0 J-0.0096
G1 Y0.6496
G2 X0.7283 Y0.64 I-0.0096 J0.0
G1 F1.0 Z-0.135
G1 F10.0 X0.6496
G2 X0.64 Y0.6496 I0.0 J0.0096
G1 Y2.8543
G2 X0.6496 Y2.8639 I0.0096 J0.0
G1 X0.7283
G2 X0.7379 Y2.8543 I0.0 J-0.0096
G1 Y0.6496
G2 X0.7283 Y0.64 I-0.0096 J0.0
G1 F1.0 Z-0.15
G1 F10.0 X0.6496
G2 X0.64 Y0.6496 I0.0 J0.0096
G1 Y2.8543
G2 X0.6496 Y2.8639 I0.0096 J0.0
G1 X0.7283
G2 X0.7379 Y2.8543 I0.0 J-0.0096
G1 Y0.6496
G2 X0.7283 Y0.64 I-0.0096 J0.0
G1 F1.0 Z-0.165
G1 F10.0 X0.6496
G2 X0.64 Y0.6496 I0.0 J0.0096
G1 Y2.8543
G2 X0.6496 Y2.8639 I0.0096 J0.0
G1 X0.7283
G2 X0.7379 Y2.8543 I0.0 J-0.0096
G1 Y0.6496
G2 X0.7283 Y0.64 I-0.0096 J0.0
G1 F1.0 Z-0.18
G1 F10.0 X0.6496
G2 X0.64 Y0.6496 I0.0 J0.0096
G1 Y2.8543
G2 X0.6496 Y2.8639 I0.0096 J0.0
G1 X0.7283
G2 X0.7379 Y2.8543 I0.0 J-0.0096
G1 Y0.6496
G2 X0.7283 Y0.64 I-0.0096 J0.0
( Profile2 )
S1000
G0 Z0.125
G0 X0.6496 Y4.1046
G0 Z0.0625
G1 F1.0 Z-0.015
G3 F10.0 X0.0293 Y3.4843 I0.0 J-0.6203
G1 Y0.6496
G3 X0.6496 Y0.0293 I0.6203 J0.0
G1 X0.7283
G3 X1.3487 Y0.6496 I0.0 J0.6203
G1 Y3.4843
G3 X0.7283 Y4.1046 I-0.6203 J0.0
G1 X0.6496
G1 F1.0 Z-0.03
G3 F10.0 X0.0293 Y3.4843 I0.0 J-0.6203
G1 Y0.6496
G3 X0.6496 Y0.0293 I0.6203 J0.0
G1 X0.7283
G3 X1.3487 Y0.6496 I0.0 J0.6203
G1 Y3.4843
G3 X0.7283 Y4.1046 I-0.6203 J0.0
G1 X0.6496
G1 F1.0 Z-0.045
G3 F10.0 X0.0293 Y3.4843 I0.0 J-0.6203
G1 Y0.6496
G3 X0.6496 Y0.0293 I0.6203 J0.0
G1 X0.7283
G3 X1.3487 Y0.6496 I0.0 J0.6203
G1 Y3.4843
G3 X0.7283 Y4.1046 I-0.6203 J0.0
G1 X0.6496
G1 F1.0 Z-0.06
G3 F10.0 X0.0293 Y3.4843 I0.0 J-0.6203
G1 Y0.6496
G3 X0.6496 Y0.0293 I0.6203 J0.0
G1 X0.7283
G3 X1.3487 Y0.6496 I0.0 J0.6203
G1 Y3.4843
G3 X0.7283 Y4.1046 I-0.6203 J0.0
G1 X0.6496
G1 F1.0 Z-0.075
G3 F10.0 X0.0293 Y3.4843 I0.0 J-0.6203
G1 Y0.6496
G3 X0.6496 Y0.0293 I0.6203 J0.0
G1 X0.7283
G3 X1.3487 Y0.6496 I0.0 J0.6203
G1 Y3.4843
G3 X0.7283 Y4.1046 I-0.6203 J0.0
G1 X0.6496
G1 F1.0 Z-0.09
G3 F10.0 X0.0293 Y3.4843 I0.0 J-0.6203
G1 Y0.6496
G3 X0.6496 Y0.0293 I0.6203 J0.0
G1 X0.7283
G3 X1.3487 Y0.6496 I0.0 J0.6203
G1 Y3.4843
G3 X0.7283 Y4.1046 I-0.6203 J0.0
G1 X0.6496
G1 F1.0 Z-0.105
G3 F10.0 X0.0293 Y3.4843 I0.0 J-0.6203
G1 Y0.6496
G3 X0.6496 Y0.0293 I0.6203 J0.0
G1 X0.7283
G3 X1.3487 Y0.6496 I0.0 J0.6203
G1 Y3.4843
G3 X0.7283 Y4.1046 I-0.6203 J0.0
G1 X0.6496
G1 F1.0 Z-0.12
G3 F10.0 X0.0293 Y3.4843 I0.0 J-0.6203
G1 Y0.6496
G3 X0.6496 Y0.0293 I0.6203 J0.0
G1 X0.7283
G3 X1.3487 Y0.6496 I0.0 J0.6203
G1 Y3.4843
G3 X0.7283 Y4.1046 I-0.6203 J0.0
G1 X0.6496
G1 F1.0 Z-0.135
G3 F10.0 X0.0293 Y3.4843 I0.0 J-0.6203
G1 Y0.6496
G3 X0.6496 Y0.0293 I0.6203 J0.0
G1 X0.7283
G3 X1.3487 Y0.6496 I0.0 J0.6203
G1 Y3.4843
G3 X0.7283 Y4.1046 I-0.6203 J0.0
G1 X0.6496
G1 F1.0 Z-0.15
G3 F10.0 X0.0293 Y3.4843 I0.0 J-0.6203
G1 Y0.6496
G3 X0.6496 Y0.0293 I0.6203 J0.0
G1 X0.7283
G3 X1.3487 Y0.6496 I0.0 J0.6203
G1 Y3.4843
G3 X0.7283 Y4.1046 I-0.6203 J0.0
G1 X0.6496
G1 F1.0 Z-0.165
G3 F10.0 X0.0293 Y3.4843 I0.0 J-0.6203
G1 Y0.6496
G3 X0.6496 Y0.0293 I0.6203 J0.0
G1 X0.7283
G3 X1.3487 Y0.6496 I0.0 J0.6203
G1 Y3.4843
G3 X0.7283 Y4.1046 I-0.6203 J0.0
G1 X0.6496
G1 F1.0 Z-0.18
G3 F10.0 X0.0293 Y3.4843 I0.0 J-0.6203
G1 Y0.6496
G3 X0.6496 Y0.0293 I0.6203 J0.0
G1 X0.7283
G3 X1.3487 Y0.6496 I0.0 J0.6203
G1 Y3.4843
G3 X0.7283 Y4.1046 I-0.6203 J0.0
G1 X0.6496
G0 Z0.125
M5
M30
