( Made using CamBam - http://www.cambam.co.uk )
( Clamps3 4/13/2014 13:58:53 )
( T0 : 0.1383 )
G20 G90 G64 G40
G0 Z0.125
( T0 : 0.1383 )
T0 M6
( Pocket1 )
G17
M3 S1000
G0 X0.6779 Y3.6334
G0 Z0.0625
G1 F1.0 Z-0.03
G2 F5.0 X0.6635 Y3.6251 I-0.0096 J0.0
G2 Y3.6417 I0.0048 J0.0083
G2 X0.6779 Y3.6334 I0.0048 J-0.0083
G1 F1.0 Z-0.06
G2 F5.0 X0.6635 Y3.6251 I-0.0096 J0.0
G2 Y3.6417 I0.0048 J0.0083
G2 X0.6779 Y3.6334 I0.0048 J-0.0083
G1 F1.0 Z-0.09
G2 F5.0 X0.6635 Y3.6251 I-0.0096 J0.0
G2 Y3.6417 I0.0048 J0.0083
G2 X0.6779 Y3.6334 I0.0048 J-0.0083
G1 F1.0 Z-0.12
G2 F5.0 X0.6635 Y3.6251 I-0.0096 J0.0
G2 Y3.6417 I0.0048 J0.0083
G2 X0.6779 Y3.6334 I0.0048 J-0.0083
G1 F1.0 Z-0.15
G2 F5.0 X0.6635 Y3.6251 I-0.0096 J0.0
G2 Y3.6417 I0.0048 J0.0083
G2 X0.6779 Y3.6334 I0.0048 J-0.0083
G1 F1.0 Z-0.18
G2 F5.0 X0.6635 Y3.6251 I-0.0096 J0.0
G2 Y3.6417 I0.0048 J0.0083
G2 X0.6779 Y3.6334 I0.0048 J-0.0083
( Profile1 )
S1000
G0 Z0.125
G0 X0.7074 Y2.846
G0 Z0.0625
G1 F1.0 Z-0.03
G1 F5.0 Y0.6412
G2 X0.6978 Y0.6316 I-0.0096 J0.0
G1 X0.6388
G2 X0.6292 Y0.6412 I0.0 J0.0096
G1 Y2.846
G2 X0.6388 Y2.8556 I0.0096 J0.0
G1 X0.6978
G2 X0.7074 Y2.846 I0.0 J-0.0096
G1 F1.0 Z-0.06
G1 F5.0 Y0.6412
G2 X0.6978 Y0.6316 I-0.0096 J0.0
G1 X0.6388
G2 X0.6292 Y0.6412 I0.0 J0.0096
G1 Y2.846
G2 X0.6388 Y2.8556 I0.0096 J0.0
G1 X0.6978
G2 X0.7074 Y2.846 I0.0 J-0.0096
G1 F1.0 Z-0.09
G1 F5.0 Y0.6412
G2 X0.6978 Y0.6316 I-0.0096 J0.0
G1 X0.6388
G2 X0.6292 Y0.6412 I0.0 J0.0096
G1 Y2.846
G2 X0.6388 Y2.8556 I0.0096 J0.0
G1 X0.6978
G2 X0.7074 Y2.846 I0.0 J-0.0096
G1 F1.0 Z-0.12
G1 F5.0 Y0.6412
G2 X0.6978 Y0.6316 I-0.0096 J0.0
G1 X0.6388
G2 X0.6292 Y0.6412 I0.0 J0.0096
G1 Y2.846
G2 X0.6388 Y2.8556 I0.0096 J0.0
G1 X0.6978
G2 X0.7074 Y2.846 I0.0 J-0.0096
G1 F1.0 Z-0.15
G1 F5.0 Y0.6412
G2 X0.6978 Y0.6316 I-0.0096 J0.0
G1 X0.6388
G2 X0.6292 Y0.6412 I0.0 J0.0096
G1 Y2.846
G2 X0.6388 Y2.8556 I0.0096 J0.0
G1 X0.6978
G2 X0.7074 Y2.846 I0.0 J-0.0096
G1 F1.0 Z-0.18
G1 F5.0 Y0.6412
G2 X0.6978 Y0.6316 I-0.0096 J0.0
G1 X0.6388
G2 X0.6292 Y0.6412 I0.0 J0.0096
G1 Y2.846
G2 X0.6388 Y2.8556 I0.0096 J0.0
G1 X0.6978
G2 X0.7074 Y2.846 I0.0 J-0.0096
( Profile2 )
S1000
G0 Z0.125
G0 X0.6289 Y4.0962
G0 Z0.0625
G1 F1.0 Z-0.03
G3 F5.0 X0.0086 Y3.4759 I0.0 J-0.6203
G1 Y0.6412
G3 X0.6289 Y0.0209 I0.6203 J0.0
G1 X0.7077
G3 X1.328 Y0.6412 I0.0 J0.6203
G1 Y3.4759
G3 X0.7077 Y4.0962 I-0.6203 J0.0
G1 X0.6289
G1 F1.0 Z-0.06
G3 F5.0 X0.0086 Y3.4759 I0.0 J-0.6203
G1 Y0.6412
G3 X0.6289 Y0.0209 I0.6203 J0.0
G1 X0.7077
G3 X1.328 Y0.6412 I0.0 J0.6203
G1 Y3.4759
G3 X0.7077 Y4.0962 I-0.6203 J0.0
G1 X0.6289
G1 F1.0 Z-0.09
G3 F5.0 X0.0086 Y3.4759 I0.0 J-0.6203
G1 Y0.6412
G3 X0.6289 Y0.0209 I0.6203 J0.0
G1 X0.7077
G3 X1.328 Y0.6412 I0.0 J0.6203
G1 Y3.4759
G3 X0.7077 Y4.0962 I-0.6203 J0.0
G1 X0.6289
G1 F1.0 Z-0.12
G3 F5.0 X0.0086 Y3.4759 I0.0 J-0.6203
G1 Y0.6412
G3 X0.6289 Y0.0209 I0.6203 J0.0
G1 X0.7077
G3 X1.328 Y0.6412 I0.0 J0.6203
G1 Y3.4759
G3 X0.7077 Y4.0962 I-0.6203 J0.0
G1 X0.6289
G1 F1.0 Z-0.15
G3 F5.0 X0.0086 Y3.4759 I0.0 J-0.6203
G1 Y0.6412
G3 X0.6289 Y0.0209 I0.6203 J0.0
G1 X0.7077
G3 X1.328 Y0.6412 I0.0 J0.6203
G1 Y3.4759
G3 X0.7077 Y4.0962 I-0.6203 J0.0
G1 X0.6289
G1 F1.0 Z-0.18
G3 F5.0 X0.0086 Y3.4759 I0.0 J-0.6203
G1 Y0.6412
G3 X0.6289 Y0.0209 I0.6203 J0.0
G1 X0.7077
G3 X1.328 Y0.6412 I0.0 J0.6203
G1 Y3.4759
G3 X0.7077 Y4.0962 I-0.6203 J0.0
G1 X0.6289
G0 Z0.125
M5
M30
