( Made using CamBam - http://www.cambam.co.uk )
( Clamps 4/13/2014 00:17:57 )
( T0 : 0.125 )
G20 G90 G64 G40
G0 Z0.125
( T0 : 0.125 )
T0 M6
( Pocket1 )
G17
M3 S1000
G0 X8.1507 Y3.5925
G0 Z0.0625
G1 F5.0 Z-0.015
G2 F10.0 X8.1491 Y3.5916 I-0.0011 J0.0
G2 Y3.5935 I0.0005 J0.0009
G2 X8.1507 Y3.5925 I0.0005 J-0.0009
G1 F5.0 X8.1757
G2 F10.0 X8.1366 Y3.5699 I-0.0261 J0.0
G2 Y3.6151 I0.013 J0.0226
G2 X8.1757 Y3.5925 I0.013 J-0.0226
G1 F5.0 X8.1507
G1 Z-0.03
G2 F10.0 X8.1491 Y3.5916 I-0.0011 J0.0
G2 Y3.5935 I0.0005 J0.0009
G2 X8.1507 Y3.5925 I0.0005 J-0.0009
G1 F5.0 X8.1757
G2 F10.0 X8.1366 Y3.5699 I-0.0261 J0.0
G2 Y3.6151 I0.013 J0.0226
G2 X8.1757 Y3.5925 I0.013 J-0.0226
G1 F5.0 X8.1507
G1 Z-0.045
G2 F10.0 X8.1491 Y3.5916 I-0.0011 J0.0
G2 Y3.5935 I0.0005 J0.0009
G2 X8.1507 Y3.5925 I0.0005 J-0.0009
G1 F5.0 X8.1757
G2 F10.0 X8.1366 Y3.5699 I-0.0261 J0.0
G2 Y3.6151 I0.013 J0.0226
G2 X8.1757 Y3.5925 I0.013 J-0.0226
G1 F5.0 X8.1507
G1 Z-0.06
G2 F10.0 X8.1491 Y3.5916 I-0.0011 J0.0
G2 Y3.5935 I0.0005 J0.0009
G2 X8.1507 Y3.5925 I0.0005 J-0.0009
G1 F5.0 X8.1757
G2 F10.0 X8.1366 Y3.5699 I-0.0261 J0.0
G2 Y3.6151 I0.013 J0.0226
G2 X8.1757 Y3.5925 I0.013 J-0.0226
G1 F5.0 X8.1507
G1 Z-0.075
G2 F10.0 X8.1491 Y3.5916 I-0.0011 J0.0
G2 Y3.5935 I0.0005 J0.0009
G2 X8.1507 Y3.5925 I0.0005 J-0.0009
G1 F5.0 X8.1757
G2 F10.0 X8.1366 Y3.5699 I-0.0261 J0.0
G2 Y3.6151 I0.013 J0.0226
G2 X8.1757 Y3.5925 I0.013 J-0.0226
G1 F5.0 X8.1507
G1 Z-0.09
G2 F10.0 X8.1491 Y3.5916 I-0.0011 J0.0
G2 Y3.5935 I0.0005 J0.0009
G2 X8.1507 Y3.5925 I0.0005 J-0.0009
G1 F5.0 X8.1757
G2 F10.0 X8.1366 Y3.5699 I-0.0261 J0.0
G2 Y3.6151 I0.013 J0.0226
G2 X8.1757 Y3.5925 I0.013 J-0.0226
G1 F5.0 X8.1507
G1 Z-0.105
G2 F10.0 X8.1491 Y3.5916 I-0.0011 J0.0
G2 Y3.5935 I0.0005 J0.0009
G2 X8.1507 Y3.5925 I0.0005 J-0.0009
G1 F5.0 X8.1757
G2 F10.0 X8.1366 Y3.5699 I-0.0261 J0.0
G2 Y3.6151 I0.013 J0.0226
G2 X8.1757 Y3.5925 I0.013 J-0.0226
G1 F5.0 X8.1507
G1 Z-0.12
G2 F10.0 X8.1491 Y3.5916 I-0.0011 J0.0
G2 Y3.5935 I0.0005 J0.0009
G2 X8.1507 Y3.5925 I0.0005 J-0.0009
G1 F5.0 X8.1757
G2 F10.0 X8.1366 Y3.5699 I-0.0261 J0.0
G2 Y3.6151 I0.013 J0.0226
G2 X8.1757 Y3.5925 I0.013 J-0.0226
G1 F5.0 X8.1507
G1 Z-0.135
G2 F10.0 X8.1491 Y3.5916 I-0.0011 J0.0
G2 Y3.5935 I0.0005 J0.0009
G2 X8.1507 Y3.5925 I0.0005 J-0.0009
G1 F5.0 X8.1757
G2 F10.0 X8.1366 Y3.5699 I-0.0261 J0.0
G2 Y3.6151 I0.013 J0.0226
G2 X8.1757 Y3.5925 I0.013 J-0.0226
G1 F5.0 X8.1507
G1 Z-0.15
G2 F10.0 X8.1491 Y3.5916 I-0.0011 J0.0
G2 Y3.5935 I0.0005 J0.0009
G2 X8.1507 Y3.5925 I0.0005 J-0.0009
G1 F5.0 X8.1757
G2 F10.0 X8.1366 Y3.5699 I-0.0261 J0.0
G2 Y3.6151 I0.013 J0.0226
G2 X8.1757 Y3.5925 I0.013 J-0.0226
G0 Z0.125
G0 X6.6546
G0 Z0.0625
G1 F5.0 Z-0.015
G2 F10.0 X6.653 Y3.5916 I-0.0011 J0.0
G2 Y3.5935 I0.0005 J0.0009
G2 X6.6546 Y3.5925 I0.0005 J-0.0009
G1 F5.0 X6.6796
G2 F10.0 X6.6405 Y3.5699 I-0.0261 J0.0
G2 Y3.6151 I0.013 J0.0226
G2 X6.6796 Y3.5925 I0.013 J-0.0226
G1 F5.0 X6.6546
G1 Z-0.03
G2 F10.0 X6.653 Y3.5916 I-0.0011 J0.0
G2 Y3.5935 I0.0005 J0.0009
G2 X6.6546 Y3.5925 I0.0005 J-0.0009
G1 F5.0 X6.6796
G2 F10.0 X6.6405 Y3.5699 I-0.0261 J0.0
G2 Y3.6151 I0.013 J0.0226
G2 X6.6796 Y3.5925 I0.013 J-0.0226
G1 F5.0 X6.6546
G1 Z-0.045
G2 F10.0 X6.653 Y3.5916 I-0.0011 J0.0
G2 Y3.5935 I0.0005 J0.0009
G2 X6.6546 Y3.5925 I0.0005 J-0.0009
G1 F5.0 X6.6796
G2 F10.0 X6.6405 Y3.5699 I-0.0261 J0.0
G2 Y3.6151 I0.013 J0.0226
G2 X6.6796 Y3.5925 I0.013 J-0.0226
G1 F5.0 X6.6546
G1 Z-0.06
G2 F10.0 X6.653 Y3.5916 I-0.0011 J0.0
G2 Y3.5935 I0.0005 J0.0009
G2 X6.6546 Y3.5925 I0.0005 J-0.0009
G1 F5.0 X6.6796
G2 F10.0 X6.6405 Y3.5699 I-0.0261 J0.0
G2 Y3.6151 I0.013 J0.0226
G2 X6.6796 Y3.5925 I0.013 J-0.0226
G1 F5.0 X6.6546
G1 Z-0.075
G2 F10.0 X6.653 Y3.5916 I-0.0011 J0.0
G2 Y3.5935 I0.0005 J0.0009
G2 X6.6546 Y3.5925 I0.0005 J-0.0009
G1 F5.0 X6.6796
G2 F10.0 X6.6405 Y3.5699 I-0.0261 J0.0
G2 Y3.6151 I0.013 J0.0226
G2 X6.6796 Y3.5925 I0.013 J-0.0226
G1 F5.0 X6.6546
G1 Z-0.09
G2 F10.0 X6.653 Y3.5916 I-0.0011 J0.0
G2 Y3.5935 I0.0005 J0.0009
G2 X6.6546 Y3.5925 I0.0005 J-0.0009
G1 F5.0 X6.6796
G2 F10.0 X6.6405 Y3.5699 I-0.0261 J0.0
G2 Y3.6151 I0.013 J0.0226
G2 X6.6796 Y3.5925 I0.013 J-0.0226
G1 F5.0 X6.6546
G1 Z-0.105
G2 F10.0 X6.653 Y3.5916 I-0.0011 J0.0
G2 Y3.5935 I0.0005 J0.0009
G2 X6.6546 Y3.5925 I0.0005 J-0.0009
G1 F5.0 X6.6796
G2 F10.0 X6.6405 Y3.5699 I-0.0261 J0.0
G2 Y3.6151 I0.013 J0.0226
G2 X6.6796 Y3.5925 I0.013 J-0.0226
G1 F5.0 X6.6546
G1 Z-0.12
G2 F10.0 X6.653 Y3.5916 I-0.0011 J0.0
G2 Y3.5935 I0.0005 J0.0009
G2 X6.6546 Y3.5925 I0.0005 J-0.0009
G1 F5.0 X6.6796
G2 F10.0 X6.6405 Y3.5699 I-0.0261 J0.0
G2 Y3.6151 I0.013 J0.0226
G2 X6.6796 Y3.5925 I0.013 J-0.0226
G1 F5.0 X6.6546
G1 Z-0.135
G2 F10.0 X6.653 Y3.5916 I-0.0011 J0.0
G2 Y3.5935 I0.0005 J0.0009
G2 X6.6546 Y3.5925 I0.0005 J-0.0009
G1 F5.0 X6.6796
G2 F10.0 X6.6405 Y3.5699 I-0.0261 J0.0
G2 Y3.6151 I0.013 J0.0226
G2 X6.6796 Y3.5925 I0.013 J-0.0226
G1 F5.0 X6.6546
G1 Z-0.15
G2 F10.0 X6.653 Y3.5916 I-0.0011 J0.0
G2 Y3.5935 I0.0005 J0.0009
G2 X6.6546 Y3.5925 I0.0005 J-0.0009
G1 F5.0 X6.6796
G2 F10.0 X6.6405 Y3.5699 I-0.0261 J0.0
G2 Y3.6151 I0.013 J0.0226
G2 X6.6796 Y3.5925 I0.013 J-0.0226
G0 Z0.125
G0 X5.1586
G0 Z0.0625
G1 F5.0 Z-0.015
G2 F10.0 X5.1569 Y3.5916 I-0.0011 J0.0
G2 Y3.5935 I0.0005 J0.0009
G2 X5.1586 Y3.5925 I0.0005 J-0.0009
G1 F5.0 X5.1836
G2 F10.0 X5.1444 Y3.5699 I-0.0261 J0.0
G2 Y3.6151 I0.013 J0.0226
G2 X5.1836 Y3.5925 I0.013 J-0.0226
G1 F5.0 X5.1586
G1 Z-0.03
G2 F10.0 X5.1569 Y3.5916 I-0.0011 J0.0
G2 Y3.5935 I0.0005 J0.0009
G2 X5.1586 Y3.5925 I0.0005 J-0.0009
G1 F5.0 X5.1836
G2 F10.0 X5.1444 Y3.5699 I-0.0261 J0.0
G2 Y3.6151 I0.013 J0.0226
G2 X5.1836 Y3.5925 I0.013 J-0.0226
G1 F5.0 X5.1586
G1 Z-0.045
G2 F10.0 X5.1569 Y3.5916 I-0.0011 J0.0
G2 Y3.5935 I0.0005 J0.0009
G2 X5.1586 Y3.5925 I0.0005 J-0.0009
G1 F5.0 X5.1836
G2 F10.0 X5.1444 Y3.5699 I-0.0261 J0.0
G2 Y3.6151 I0.013 J0.0226
G2 X5.1836 Y3.5925 I0.013 J-0.0226
G1 F5.0 X5.1586
G1 Z-0.06
G2 F10.0 X5.1569 Y3.5916 I-0.0011 J0.0
G2 Y3.5935 I0.0005 J0.0009
G2 X5.1586 Y3.5925 I0.0005 J-0.0009
G1 F5.0 X5.1836
G2 F10.0 X5.1444 Y3.5699 I-0.0261 J0.0
G2 Y3.6151 I0.013 J0.0226
G2 X5.1836 Y3.5925 I0.013 J-0.0226
G1 F5.0 X5.1586
G1 Z-0.075
G2 F10.0 X5.1569 Y3.5916 I-0.0011 J0.0
G2 Y3.5935 I0.0005 J0.0009
G2 X5.1586 Y3.5925 I0.0005 J-0.0009
G1 F5.0 X5.1836
G2 F10.0 X5.1444 Y3.5699 I-0.0261 J0.0
G2 Y3.6151 I0.013 J0.0226
G2 X5.1836 Y3.5925 I0.013 J-0.0226
G1 F5.0 X5.1586
G1 Z-0.09
G2 F10.0 X5.1569 Y3.5916 I-0.0011 J0.0
G2 Y3.5935 I0.0005 J0.0009
G2 X5.1586 Y3.5925 I0.0005 J-0.0009
G1 F5.0 X5.1836
G2 F10.0 X5.1444 Y3.5699 I-0.0261 J0.0
G2 Y3.6151 I0.013 J0.0226
G2 X5.1836 Y3.5925 I0.013 J-0.0226
G1 F5.0 X5.1586
G1 Z-0.105
G2 F10.0 X5.1569 Y3.5916 I-0.0011 J0.0
G2 Y3.5935 I0.0005 J0.0009
G2 X5.1586 Y3.5925 I0.0005 J-0.0009
G1 F5.0 X5.1836
G2 F10.0 X5.1444 Y3.5699 I-0.0261 J0.0
G2 Y3.6151 I0.013 J0.0226
G2 X5.1836 Y3.5925 I0.013 J-0.0226
G1 F5.0 X5.1586
G1 Z-0.12
G2 F10.0 X5.1569 Y3.5916 I-0.0011 J0.0
G2 Y3.5935 I0.0005 J0.0009
G2 X5.1586 Y3.5925 I0.0005 J-0.0009
G1 F5.0 X5.1836
G2 F10.0 X5.1444 Y3.5699 I-0.0261 J0.0
G2 Y3.6151 I0.013 J0.0226
G2 X5.1836 Y3.5925 I0.013 J-0.0226
G1 F5.0 X5.1586
G1 Z-0.135
G2 F10.0 X5.1569 Y3.5916 I-0.0011 J0.0
G2 Y3.5935 I0.0005 J0.0009
G2 X5.1586 Y3.5925 I0.0005 J-0.0009
G1 F5.0 X5.1836
G2 F10.0 X5.1444 Y3.5699 I-0.0261 J0.0
G2 Y3.6151 I0.013 J0.0226
G2 X5.1836 Y3.5925 I0.013 J-0.0226
G1 F5.0 X5.1586
G1 Z-0.15
G2 F10.0 X5.1569 Y3.5916 I-0.0011 J0.0
G2 Y3.5935 I0.0005 J0.0009
G2 X5.1586 Y3.5925 I0.0005 J-0.0009
G1 F5.0 X5.1836
G2 F10.0 X5.1444 Y3.5699 I-0.0261 J0.0
G2 Y3.6151 I0.013 J0.0226
G2 X5.1836 Y3.5925 I0.013 J-0.0226
G0 Z0.125
G0 X3.6231
G0 Z0.0625
G1 F5.0 Z-0.015
G2 F10.0 X3.6215 Y3.5916 I-0.0011 J0.0
G2 Y3.5935 I0.0005 J0.0009
G2 X3.6231 Y3.5925 I0.0005 J-0.0009
G1 F5.0 X3.6481
G2 F10.0 X3.609 Y3.5699 I-0.0261 J0.0
G2 Y3.6151 I0.013 J0.0226
G2 X3.6481 Y3.5925 I0.013 J-0.0226
G1 F5.0 X3.6231
G1 Z-0.03
G2 F10.0 X3.6215 Y3.5916 I-0.0011 J0.0
G2 Y3.5935 I0.0005 J0.0009
G2 X3.6231 Y3.5925 I0.0005 J-0.0009
G1 F5.0 X3.6481
G2 F10.0 X3.609 Y3.5699 I-0.0261 J0.0
G2 Y3.6151 I0.013 J0.0226
G2 X3.6481 Y3.5925 I0.013 J-0.0226
G1 F5.0 X3.6231
G1 Z-0.045
G2 F10.0 X3.6215 Y3.5916 I-0.0011 J0.0
G2 Y3.5935 I0.0005 J0.0009
G2 X3.6231 Y3.5925 I0.0005 J-0.0009
G1 F5.0 X3.6481
G2 F10.0 X3.609 Y3.5699 I-0.0261 J0.0
G2 Y3.6151 I0.013 J0.0226
G2 X3.6481 Y3.5925 I0.013 J-0.0226
G1 F5.0 X3.6231
G1 Z-0.06
G2 F10.0 X3.6215 Y3.5916 I-0.0011 J0.0
G2 Y3.5935 I0.0005 J0.0009
G2 X3.6231 Y3.5925 I0.0005 J-0.0009
G1 F5.0 X3.6481
G2 F10.0 X3.609 Y3.5699 I-0.0261 J0.0
G2 Y3.6151 I0.013 J0.0226
G2 X3.6481 Y3.5925 I0.013 J-0.0226
G1 F5.0 X3.6231
G1 Z-0.075
G2 F10.0 X3.6215 Y3.5916 I-0.0011 J0.0
G2 Y3.5935 I0.0005 J0.0009
G2 X3.6231 Y3.5925 I0.0005 J-0.0009
G1 F5.0 X3.6481
G2 F10.0 X3.609 Y3.5699 I-0.0261 J0.0
G2 Y3.6151 I0.013 J0.0226
G2 X3.6481 Y3.5925 I0.013 J-0.0226
G1 F5.0 X3.6231
G1 Z-0.09
G2 F10.0 X3.6215 Y3.5916 I-0.0011 J0.0
G2 Y3.5935 I0.0005 J0.0009
G2 X3.6231 Y3.5925 I0.0005 J-0.0009
G1 F5.0 X3.6481
G2 F10.0 X3.609 Y3.5699 I-0.0261 J0.0
G2 Y3.6151 I0.013 J0.0226
G2 X3.6481 Y3.5925 I0.013 J-0.0226
G1 F5.0 X3.6231
G1 Z-0.105
G2 F10.0 X3.6215 Y3.5916 I-0.0011 J0.0
G2 Y3.5935 I0.0005 J0.0009
G2 X3.6231 Y3.5925 I0.0005 J-0.0009
G1 F5.0 X3.6481
G2 F10.0 X3.609 Y3.5699 I-0.0261 J0.0
G2 Y3.6151 I0.013 J0.0226
G2 X3.6481 Y3.5925 I0.013 J-0.0226
G1 F5.0 X3.6231
G1 Z-0.12
G2 F10.0 X3.6215 Y3.5916 I-0.0011 J0.0
G2 Y3.5935 I0.0005 J0.0009
G2 X3.6231 Y3.5925 I0.0005 J-0.0009
G1 F5.0 X3.6481
G2 F10.0 X3.609 Y3.5699 I-0.0261 J0.0
G2 Y3.6151 I0.013 J0.0226
G2 X3.6481 Y3.5925 I0.013 J-0.0226
G1 F5.0 X3.6231
G1 Z-0.135
G2 F10.0 X3.6215 Y3.5916 I-0.0011 J0.0
G2 Y3.5935 I0.0005 J0.0009
G2 X3.6231 Y3.5925 I0.0005 J-0.0009
G1 F5.0 X3.6481
G2 F10.0 X3.609 Y3.5699 I-0.0261 J0.0
G2 Y3.6151 I0.013 J0.0226
G2 X3.6481 Y3.5925 I0.013 J-0.0226
G1 F5.0 X3.6231
G1 Z-0.15
G2 F10.0 X3.6215 Y3.5916 I-0.0011 J0.0
G2 Y3.5935 I0.0005 J0.0009
G2 X3.6231 Y3.5925 I0.0005 J-0.0009
G1 F5.0 X3.6481
G2 F10.0 X3.609 Y3.5699 I-0.0261 J0.0
G2 Y3.6151 I0.013 J0.0226
G2 X3.6481 Y3.5925 I0.013 J-0.0226
G0 Z0.125
G0 X2.1271
G0 Z0.0625
G1 F5.0 Z-0.015
G2 F10.0 X2.1254 Y3.5916 I-0.0011 J0.0
G2 Y3.5935 I0.0005 J0.0009
G2 X2.1271 Y3.5925 I0.0005 J-0.0009
G1 F5.0 X2.1521
G2 F10.0 X2.1129 Y3.5699 I-0.0261 J0.0
G2 Y3.6151 I0.013 J0.0226
G2 X2.1521 Y3.5925 I0.013 J-0.0226
G1 F5.0 X2.1271
G1 Z-0.03
G2 F10.0 X2.1254 Y3.5916 I-0.0011 J0.0
G2 Y3.5935 I0.0005 J0.0009
G2 X2.1271 Y3.5925 I0.0005 J-0.0009
G1 F5.0 X2.1521
G2 F10.0 X2.1129 Y3.5699 I-0.0261 J0.0
G2 Y3.6151 I0.013 J0.0226
G2 X2.1521 Y3.5925 I0.013 J-0.0226
G1 F5.0 X2.1271
G1 Z-0.045
G2 F10.0 X2.1254 Y3.5916 I-0.0011 J0.0
G2 Y3.5935 I0.0005 J0.0009
G2 X2.1271 Y3.5925 I0.0005 J-0.0009
G1 F5.0 X2.1521
G2 F10.0 X2.1129 Y3.5699 I-0.0261 J0.0
G2 Y3.6151 I0.013 J0.0226
G2 X2.1521 Y3.5925 I0.013 J-0.0226
G1 F5.0 X2.1271
G1 Z-0.06
G2 F10.0 X2.1254 Y3.5916 I-0.0011 J0.0
G2 Y3.5935 I0.0005 J0.0009
G2 X2.1271 Y3.5925 I0.0005 J-0.0009
G1 F5.0 X2.1521
G2 F10.0 X2.1129 Y3.5699 I-0.0261 J0.0
G2 Y3.6151 I0.013 J0.0226
G2 X2.1521 Y3.5925 I0.013 J-0.0226
G1 F5.0 X2.1271
G1 Z-0.075
G2 F10.0 X2.1254 Y3.5916 I-0.0011 J0.0
G2 Y3.5935 I0.0005 J0.0009
G2 X2.1271 Y3.5925 I0.0005 J-0.0009
G1 F5.0 X2.1521
G2 F10.0 X2.1129 Y3.5699 I-0.0261 J0.0
G2 Y3.6151 I0.013 J0.0226
G2 X2.1521 Y3.5925 I0.013 J-0.0226
G1 F5.0 X2.1271
G1 Z-0.09
G2 F10.0 X2.1254 Y3.5916 I-0.0011 J0.0
G2 Y3.5935 I0.0005 J0.0009
G2 X2.1271 Y3.5925 I0.0005 J-0.0009
G1 F5.0 X2.1521
G2 F10.0 X2.1129 Y3.5699 I-0.0261 J0.0
G2 Y3.6151 I0.013 J0.0226
G2 X2.1521 Y3.5925 I0.013 J-0.0226
G1 F5.0 X2.1271
G1 Z-0.105
G2 F10.0 X2.1254 Y3.5916 I-0.0011 J0.0
G2 Y3.5935 I0.0005 J0.0009
G2 X2.1271 Y3.5925 I0.0005 J-0.0009
G1 F5.0 X2.1521
G2 F10.0 X2.1129 Y3.5699 I-0.0261 J0.0
G2 Y3.6151 I0.013 J0.0226
G2 X2.1521 Y3.5925 I0.013 J-0.0226
G1 F5.0 X2.1271
G1 Z-0.12
G2 F10.0 X2.1254 Y3.5916 I-0.0011 J0.0
G2 Y3.5935 I0.0005 J0.0009
G2 X2.1271 Y3.5925 I0.0005 J-0.0009
G1 F5.0 X2.1521
G2 F10.0 X2.1129 Y3.5699 I-0.0261 J0.0
G2 Y3.6151 I0.013 J0.0226
G2 X2.1521 Y3.5925 I0.013 J-0.0226
G1 F5.0 X2.1271
G1 Z-0.135
G2 F10.0 X2.1254 Y3.5916 I-0.0011 J0.0
G2 Y3.5935 I0.0005 J0.0009
G2 X2.1271 Y3.5925 I0.0005 J-0.0009
G1 F5.0 X2.1521
G2 F10.0 X2.1129 Y3.5699 I-0.0261 J0.0
G2 Y3.6151 I0.013 J0.0226
G2 X2.1521 Y3.5925 I0.013 J-0.0226
G1 F5.0 X2.1271
G1 Z-0.15
G2 F10.0 X2.1254 Y3.5916 I-0.0011 J0.0
G2 Y3.5935 I0.0005 J0.0009
G2 X2.1271 Y3.5925 I0.0005 J-0.0009
G1 F5.0 X2.1521
G2 F10.0 X2.1129 Y3.5699 I-0.0261 J0.0
G2 Y3.6151 I0.013 J0.0226
G2 X2.1521 Y3.5925 I0.013 J-0.0226
G0 Z0.125
G0 X0.631
G0 Z0.0625
G1 F5.0 Z-0.015
G2 F10.0 X0.6294 Y3.5916 I-0.0011 J0.0
G2 Y3.5935 I0.0005 J0.0009
G2 X0.631 Y3.5925 I0.0005 J-0.0009
G1 F5.0 X0.656
G2 F10.0 X0.6169 Y3.5699 I-0.0261 J0.0
G2 Y3.6151 I0.013 J0.0226
G2 X0.656 Y3.5925 I0.013 J-0.0226
G1 F5.0 X0.631
G1 Z-0.03
G2 F10.0 X0.6294 Y3.5916 I-0.0011 J0.0
G2 Y3.5935 I0.0005 J0.0009
G2 X0.631 Y3.5925 I0.0005 J-0.0009
G1 F5.0 X0.656
G2 F10.0 X0.6169 Y3.5699 I-0.0261 J0.0
G2 Y3.6151 I0.013 J0.0226
G2 X0.656 Y3.5925 I0.013 J-0.0226
G1 F5.0 X0.631
G1 Z-0.045
G2 F10.0 X0.6294 Y3.5916 I-0.0011 J0.0
G2 Y3.5935 I0.0005 J0.0009
G2 X0.631 Y3.5925 I0.0005 J-0.0009
G1 F5.0 X0.656
G2 F10.0 X0.6169 Y3.5699 I-0.0261 J0.0
G2 Y3.6151 I0.013 J0.0226
G2 X0.656 Y3.5925 I0.013 J-0.0226
G1 F5.0 X0.631
G1 Z-0.06
G2 F10.0 X0.6294 Y3.5916 I-0.0011 J0.0
G2 Y3.5935 I0.0005 J0.0009
G2 X0.631 Y3.5925 I0.0005 J-0.0009
G1 F5.0 X0.656
G2 F10.0 X0.6169 Y3.5699 I-0.0261 J0.0
G2 Y3.6151 I0.013 J0.0226
G2 X0.656 Y3.5925 I0.013 J-0.0226
G1 F5.0 X0.631
G1 Z-0.075
G2 F10.0 X0.6294 Y3.5916 I-0.0011 J0.0
G2 Y3.5935 I0.0005 J0.0009
G2 X0.631 Y3.5925 I0.0005 J-0.0009
G1 F5.0 X0.656
G2 F10.0 X0.6169 Y3.5699 I-0.0261 J0.0
G2 Y3.6151 I0.013 J0.0226
G2 X0.656 Y3.5925 I0.013 J-0.0226
G1 F5.0 X0.631
G1 Z-0.09
G2 F10.0 X0.6294 Y3.5916 I-0.0011 J0.0
G2 Y3.5935 I0.0005 J0.0009
G2 X0.631 Y3.5925 I0.0005 J-0.0009
G1 F5.0 X0.656
G2 F10.0 X0.6169 Y3.5699 I-0.0261 J0.0
G2 Y3.6151 I0.013 J0.0226
G2 X0.656 Y3.5925 I0.013 J-0.0226
G1 F5.0 X0.631
G1 Z-0.105
G2 F10.0 X0.6294 Y3.5916 I-0.0011 J0.0
G2 Y3.5935 I0.0005 J0.0009
G2 X0.631 Y3.5925 I0.0005 J-0.0009
G1 F5.0 X0.656
G2 F10.0 X0.6169 Y3.5699 I-0.0261 J0.0
G2 Y3.6151 I0.013 J0.0226
G2 X0.656 Y3.5925 I0.013 J-0.0226
G1 F5.0 X0.631
G1 Z-0.12
G2 F10.0 X0.6294 Y3.5916 I-0.0011 J0.0
G2 Y3.5935 I0.0005 J0.0009
G2 X0.631 Y3.5925 I0.0005 J-0.0009
G1 F5.0 X0.656
G2 F10.0 X0.6169 Y3.5699 I-0.0261 J0.0
G2 Y3.6151 I0.013 J0.0226
G2 X0.656 Y3.5925 I0.013 J-0.0226
G1 F5.0 X0.631
G1 Z-0.135
G2 F10.0 X0.6294 Y3.5916 I-0.0011 J0.0
G2 Y3.5935 I0.0005 J0.0009
G2 X0.631 Y3.5925 I0.0005 J-0.0009
G1 F5.0 X0.656
G2 F10.0 X0.6169 Y3.5699 I-0.0261 J0.0
G2 Y3.6151 I0.013 J0.0226
G2 X0.656 Y3.5925 I0.013 J-0.0226
G1 F5.0 X0.631
G1 Z-0.15
G2 F10.0 X0.6294 Y3.5916 I-0.0011 J0.0
G2 Y3.5935 I0.0005 J0.0009
G2 X0.631 Y3.5925 I0.0005 J-0.0009
G1 F5.0 X0.656
G2 F10.0 X0.6169 Y3.5699 I-0.0261 J0.0
G2 Y3.6151 I0.013 J0.0226
G2 X0.656 Y3.5925 I0.013 J-0.0226
( Pocket2 )
S1000
G0 Z0.125
G0 X8.1552 Y2.7657
G0 Z0.0625
G1 F5.0 Z0.0
G1 F10.0 Y0.6398 Z-0.0074
G2 X8.144 Z-0.0075 I-0.0056 J0.0
G1 Y2.7657 Z-0.0149
G2 X8.1552 Z-0.015 I0.0056 J0.0
G1 F5.0 X8.2052
G1 F10.0 Y0.6398
G2 X8.094 I-0.0556 J0.0
G1 Y2.7657
G2 X8.2052 I0.0556 J0.0
G1 F5.0 X8.1552
G1 F10.0 Y0.6398 Z-0.0224
G2 X8.144 Z-0.0225 I-0.0056 J0.0
G1 Y2.7657 Z-0.0299
G2 X8.1552 Z-0.03 I0.0056 J0.0
G1 F5.0 X8.2052
G1 F10.0 Y0.6398
G2 X8.094 I-0.0556 J0.0
G1 Y2.7657
G2 X8.2052 I0.0556 J0.0
G1 F5.0 X8.1552
G1 F10.0 Y0.6398 Z-0.0374
G2 X8.144 Z-0.0375 I-0.0056 J0.0
G1 Y2.7657 Z-0.0449
G2 X8.1552 Z-0.045 I0.0056 J0.0
G1 F5.0 X8.2052
G1 F10.0 Y0.6398
G2 X8.094 I-0.0556 J0.0
G1 Y2.7657
G2 X8.2052 I0.0556 J0.0
G1 F5.0 X8.1552
G1 F10.0 Y0.6398 Z-0.0524
G2 X8.144 Z-0.0525 I-0.0056 J0.0
G1 Y2.7657 Z-0.0599
G2 X8.1552 Z-0.06 I0.0056 J0.0
G1 F5.0 X8.2052
G1 F10.0 Y0.6398
G2 X8.094 I-0.0556 J0.0
G1 Y2.7657
G2 X8.2052 I0.0556 J0.0
G1 F5.0 X8.1552
G1 F10.0 Y0.6398 Z-0.0674
G2 X8.144 Z-0.0675 I-0.0056 J0.0
G1 Y2.7657 Z-0.0749
G2 X8.1552 Z-0.075 I0.0056 J0.0
G1 F5.0 X8.2052
G1 F10.0 Y0.6398
G2 X8.094 I-0.0556 J0.0
G1 Y2.7657
G2 X8.2052 I0.0556 J0.0
G1 F5.0 X8.1552
G1 F10.0 Y0.6398 Z-0.0824
G2 X8.144 Z-0.0825 I-0.0056 J0.0
G1 Y2.7657 Z-0.0899
G2 X8.1552 Z-0.09 I0.0056 J0.0
G1 F5.0 X8.2052
G1 F10.0 Y0.6398
G2 X8.094 I-0.0556 J0.0
G1 Y2.7657
G2 X8.2052 I0.0556 J0.0
G1 F5.0 X8.1552
G1 F10.0 Y0.6398 Z-0.0974
G2 X8.144 Z-0.0975 I-0.0056 J0.0
G1 Y2.7657 Z-0.1049
G2 X8.1552 Z-0.105 I0.0056 J0.0
G1 F5.0 X8.2052
G1 F10.0 Y0.6398
G2 X8.094 I-0.0556 J0.0
G1 Y2.7657
G2 X8.2052 I0.0556 J0.0
G1 F5.0 X8.1552
G1 F10.0 Y0.6398 Z-0.1124
G2 X8.144 Z-0.1125 I-0.0056 J0.0
G1 Y2.7657 Z-0.1199
G2 X8.1552 Z-0.12 I0.0056 J0.0
G1 F5.0 X8.2052
G1 F10.0 Y0.6398
G2 X8.094 I-0.0556 J0.0
G1 Y2.7657
G2 X8.2052 I0.0556 J0.0
G1 F5.0 X8.1552
G1 F10.0 Y0.6398 Z-0.1274
G2 X8.144 Z-0.1275 I-0.0056 J0.0
G1 Y2.7657 Z-0.1349
G2 X8.1552 Z-0.135 I0.0056 J0.0
G1 F5.0 X8.2052
G1 F10.0 Y0.6398
G2 X8.094 I-0.0556 J0.0
G1 Y2.7657
G2 X8.2052 I0.0556 J0.0
G1 F5.0 X8.1552
G1 F10.0 Y0.6398 Z-0.1424
G2 X8.144 Z-0.1425 I-0.0056 J0.0
G1 Y2.7657 Z-0.1499
G2 X8.1552 Z-0.15 I0.0056 J0.0
G1 Y0.6398
G2 X8.144 I-0.0056 J0.0
G1 Y2.7657
G2 X8.1552 I0.0056 J0.0
G1 F5.0 X8.2052
G1 F10.0 Y0.6398
G2 X8.094 I-0.0556 J0.0
G1 Y2.7657
G2 X8.2052 I0.0556 J0.0
G0 Z0.125
G0 X6.6592
G0 Z0.0625
G1 F5.0 Z0.0
G1 F10.0 Y0.6398 Z-0.0074
G2 X6.6479 Z-0.0075 I-0.0056 J0.0
G1 Y2.7657 Z-0.0149
G2 X6.6592 Z-0.015 I0.0056 J0.0
G1 F5.0 X6.7092
G1 F10.0 Y0.6398
G2 X6.5979 I-0.0556 J0.0
G1 Y2.7657
G2 X6.7092 I0.0556 J0.0
G1 F5.0 X6.6592
G1 F10.0 Y0.6398 Z-0.0224
G2 X6.6479 Z-0.0225 I-0.0056 J0.0
G1 Y2.7657 Z-0.0299
G2 X6.6592 Z-0.03 I0.0056 J0.0
G1 F5.0 X6.7092
G1 F10.0 Y0.6398
G2 X6.5979 I-0.0556 J0.0
G1 Y2.7657
G2 X6.7092 I0.0556 J0.0
G1 F5.0 X6.6592
G1 F10.0 Y0.6398 Z-0.0374
G2 X6.6479 Z-0.0375 I-0.0056 J0.0
G1 Y2.7657 Z-0.0449
G2 X6.6592 Z-0.045 I0.0056 J0.0
G1 F5.0 X6.7092
G1 F10.0 Y0.6398
G2 X6.5979 I-0.0556 J0.0
G1 Y2.7657
G2 X6.7092 I0.0556 J0.0
G1 F5.0 X6.6592
G1 F10.0 Y0.6398 Z-0.0524
G2 X6.6479 Z-0.0525 I-0.0056 J0.0
G1 Y2.7657 Z-0.0599
G2 X6.6592 Z-0.06 I0.0056 J0.0
G1 F5.0 X6.7092
G1 F10.0 Y0.6398
G2 X6.5979 I-0.0556 J0.0
G1 Y2.7657
G2 X6.7092 I0.0556 J0.0
G1 F5.0 X6.6592
G1 F10.0 Y0.6398 Z-0.0674
G2 X6.6479 Z-0.0675 I-0.0056 J0.0
G1 Y2.7657 Z-0.0749
G2 X6.6592 Z-0.075 I0.0056 J0.0
G1 F5.0 X6.7092
G1 F10.0 Y0.6398
G2 X6.5979 I-0.0556 J0.0
G1 Y2.7657
G2 X6.7092 I0.0556 J0.0
G1 F5.0 X6.6592
G1 F10.0 Y0.6398 Z-0.0824
G2 X6.6479 Z-0.0825 I-0.0056 J0.0
G1 Y2.7657 Z-0.0899
G2 X6.6592 Z-0.09 I0.0056 J0.0
G1 F5.0 X6.7092
G1 F10.0 Y0.6398
G2 X6.5979 I-0.0556 J0.0
G1 Y2.7657
G2 X6.7092 I0.0556 J0.0
G1 F5.0 X6.6592
G1 F10.0 Y0.6398 Z-0.0974
G2 X6.6479 Z-0.0975 I-0.0056 J0.0
G1 Y2.7657 Z-0.1049
G2 X6.6592 Z-0.105 I0.0056 J0.0
G1 F5.0 X6.7092
G1 F10.0 Y0.6398
G2 X6.5979 I-0.0556 J0.0
G1 Y2.7657
G2 X6.7092 I0.0556 J0.0
G1 F5.0 X6.6592
G1 F10.0 Y0.6398 Z-0.1124
G2 X6.6479 Z-0.1125 I-0.0056 J0.0
G1 Y2.7657 Z-0.1199
G2 X6.6592 Z-0.12 I0.0056 J0.0
G1 F5.0 X6.7092
G1 F10.0 Y0.6398
G2 X6.5979 I-0.0556 J0.0
G1 Y2.7657
G2 X6.7092 I0.0556 J0.0
G1 F5.0 X6.6592
G1 F10.0 Y0.6398 Z-0.1274
G2 X6.6479 Z-0.1275 I-0.0056 J0.0
G1 Y2.7657 Z-0.1349
G2 X6.6592 Z-0.135 I0.0056 J0.0
G1 F5.0 X6.7092
G1 F10.0 Y0.6398
G2 X6.5979 I-0.0556 J0.0
G1 Y2.7657
G2 X6.7092 I0.0556 J0.0
G1 F5.0 X6.6592
G1 F10.0 Y0.6398 Z-0.1424
G2 X6.6479 Z-0.1425 I-0.0056 J0.0
G1 Y2.7657 Z-0.1499
G2 X6.6592 Z-0.15 I0.0056 J0.0
G1 Y0.6398
G2 X6.6479 I-0.0056 J0.0
G1 Y2.7657
G2 X6.6592 I0.0056 J0.0
G1 F5.0 X6.7092
G1 F10.0 Y0.6398
G2 X6.5979 I-0.0556 J0.0
G1 Y2.7657
G2 X6.7092 I0.0556 J0.0
G0 Z0.125
G0 X5.1631
G0 Z0.0625
G1 F5.0 Z0.0
G1 F10.0 Y0.6398 Z-0.0074
G2 X5.1519 Z-0.0075 I-0.0056 J0.0
G1 Y2.7657 Z-0.0149
G2 X5.1631 Z-0.015 I0.0056 J0.0
G1 F5.0 X5.2131
G1 F10.0 Y0.6398
G2 X5.1019 I-0.0556 J0.0
G1 Y2.7657
G2 X5.2131 I0.0556 J0.0
G1 F5.0 X5.1631
G1 F10.0 Y0.6398 Z-0.0224
G2 X5.1519 Z-0.0225 I-0.0056 J0.0
G1 Y2.7657 Z-0.0299
G2 X5.1631 Z-0.03 I0.0056 J0.0
G1 F5.0 X5.2131
G1 F10.0 Y0.6398
G2 X5.1019 I-0.0556 J0.0
G1 Y2.7657
G2 X5.2131 I0.0556 J0.0
G1 F5.0 X5.1631
G1 F10.0 Y0.6398 Z-0.0374
G2 X5.1519 Z-0.0375 I-0.0056 J0.0
G1 Y2.7657 Z-0.0449
G2 X5.1631 Z-0.045 I0.0056 J0.0
G1 F5.0 X5.2131
G1 F10.0 Y0.6398
G2 X5.1019 I-0.0556 J0.0
G1 Y2.7657
G2 X5.2131 I0.0556 J0.0
G1 F5.0 X5.1631
G1 F10.0 Y0.6398 Z-0.0524
G2 X5.1519 Z-0.0525 I-0.0056 J0.0
G1 Y2.7657 Z-0.0599
G2 X5.1631 Z-0.06 I0.0056 J0.0
G1 F5.0 X5.2131
G1 F10.0 Y0.6398
G2 X5.1019 I-0.0556 J0.0
G1 Y2.7657
G2 X5.2131 I0.0556 J0.0
G1 F5.0 X5.1631
G1 F10.0 Y0.6398 Z-0.0674
G2 X5.1519 Z-0.0675 I-0.0056 J0.0
G1 Y2.7657 Z-0.0749
G2 X5.1631 Z-0.075 I0.0056 J0.0
G1 F5.0 X5.2131
G1 F10.0 Y0.6398
G2 X5.1019 I-0.0556 J0.0
G1 Y2.7657
G2 X5.2131 I0.0556 J0.0
G1 F5.0 X5.1631
G1 F10.0 Y0.6398 Z-0.0824
G2 X5.1519 Z-0.0825 I-0.0056 J0.0
G1 Y2.7657 Z-0.0899
G2 X5.1631 Z-0.09 I0.0056 J0.0
G1 F5.0 X5.2131
G1 F10.0 Y0.6398
G2 X5.1019 I-0.0556 J0.0
G1 Y2.7657
G2 X5.2131 I0.0556 J0.0
G1 F5.0 X5.1631
G1 F10.0 Y0.6398 Z-0.0974
G2 X5.1519 Z-0.0975 I-0.0056 J0.0
G1 Y2.7657 Z-0.1049
G2 X5.1631 Z-0.105 I0.0056 J0.0
G1 F5.0 X5.2131
G1 F10.0 Y0.6398
G2 X5.1019 I-0.0556 J0.0
G1 Y2.7657
G2 X5.2131 I0.0556 J0.0
G1 F5.0 X5.1631
G1 F10.0 Y0.6398 Z-0.1124
G2 X5.1519 Z-0.1125 I-0.0056 J0.0
G1 Y2.7657 Z-0.1199
G2 X5.1631 Z-0.12 I0.0056 J0.0
G1 F5.0 X5.2131
G1 F10.0 Y0.6398
G2 X5.1019 I-0.0556 J0.0
G1 Y2.7657
G2 X5.2131 I0.0556 J0.0
G1 F5.0 X5.1631
G1 F10.0 Y0.6398 Z-0.1274
G2 X5.1519 Z-0.1275 I-0.0056 J0.0
G1 Y2.7657 Z-0.1349
G2 X5.1631 Z-0.135 I0.0056 J0.0
G1 F5.0 X5.2131
G1 F10.0 Y0.6398
G2 X5.1019 I-0.0556 J0.0
G1 Y2.7657
G2 X5.2131 I0.0556 J0.0
G1 F5.0 X5.1631
G1 F10.0 Y0.6398 Z-0.1424
G2 X5.1519 Z-0.1425 I-0.0056 J0.0
G1 Y2.7657 Z-0.1499
G2 X5.1631 Z-0.15 I0.0056 J0.0
G1 Y0.6398
G2 X5.1519 I-0.0056 J0.0
G1 Y2.7657
G2 X5.1631 I0.0056 J0.0
G1 F5.0 X5.2131
G1 F10.0 Y0.6398
G2 X5.1019 I-0.0556 J0.0
G1 Y2.7657
G2 X5.2131 I0.0556 J0.0
G0 Z0.125
G0 X3.6277
G0 Z0.0625
G1 F5.0 Z0.0
G1 F10.0 Y0.6398 Z-0.0074
G2 X3.6164 Z-0.0075 I-0.0056 J0.0
G1 Y2.7657 Z-0.0149
G2 X3.6277 Z-0.015 I0.0056 J0.0
G1 F5.0 X3.6777
G1 F10.0 Y0.6398
G2 X3.5664 I-0.0556 J0.0
G1 Y2.7657
G2 X3.6777 I0.0556 J0.0
G1 F5.0 X3.6277
G1 F10.0 Y0.6398 Z-0.0224
G2 X3.6164 Z-0.0225 I-0.0056 J0.0
G1 Y2.7657 Z-0.0299
G2 X3.6277 Z-0.03 I0.0056 J0.0
G1 F5.0 X3.6777
G1 F10.0 Y0.6398
G2 X3.5664 I-0.0556 J0.0
G1 Y2.7657
G2 X3.6777 I0.0556 J0.0
G1 F5.0 X3.6277
G1 F10.0 Y0.6398 Z-0.0374
G2 X3.6164 Z-0.0375 I-0.0056 J0.0
G1 Y2.7657 Z-0.0449
G2 X3.6277 Z-0.045 I0.0056 J0.0
G1 F5.0 X3.6777
G1 F10.0 Y0.6398
G2 X3.5664 I-0.0556 J0.0
G1 Y2.7657
G2 X3.6777 I0.0556 J0.0
G1 F5.0 X3.6277
G1 F10.0 Y0.6398 Z-0.0524
G2 X3.6164 Z-0.0525 I-0.0056 J0.0
G1 Y2.7657 Z-0.0599
G2 X3.6277 Z-0.06 I0.0056 J0.0
G1 F5.0 X3.6777
G1 F10.0 Y0.6398
G2 X3.5664 I-0.0556 J0.0
G1 Y2.7657
G2 X3.6777 I0.0556 J0.0
G1 F5.0 X3.6277
G1 F10.0 Y0.6398 Z-0.0674
G2 X3.6164 Z-0.0675 I-0.0056 J0.0
G1 Y2.7657 Z-0.0749
G2 X3.6277 Z-0.075 I0.0056 J0.0
G1 F5.0 X3.6777
G1 F10.0 Y0.6398
G2 X3.5664 I-0.0556 J0.0
G1 Y2.7657
G2 X3.6777 I0.0556 J0.0
G1 F5.0 X3.6277
G1 F10.0 Y0.6398 Z-0.0824
G2 X3.6164 Z-0.0825 I-0.0056 J0.0
G1 Y2.7657 Z-0.0899
G2 X3.6277 Z-0.09 I0.0056 J0.0
G1 F5.0 X3.6777
G1 F10.0 Y0.6398
G2 X3.5664 I-0.0556 J0.0
G1 Y2.7657
G2 X3.6777 I0.0556 J0.0
G1 F5.0 X3.6277
G1 F10.0 Y0.6398 Z-0.0974
G2 X3.6164 Z-0.0975 I-0.0056 J0.0
G1 Y2.7657 Z-0.1049
G2 X3.6277 Z-0.105 I0.0056 J0.0
G1 F5.0 X3.6777
G1 F10.0 Y0.6398
G2 X3.5664 I-0.0556 J0.0
G1 Y2.7657
G2 X3.6777 I0.0556 J0.0
G1 F5.0 X3.6277
G1 F10.0 Y0.6398 Z-0.1124
G2 X3.6164 Z-0.1125 I-0.0056 J0.0
G1 Y2.7657 Z-0.1199
G2 X3.6277 Z-0.12 I0.0056 J0.0
G1 F5.0 X3.6777
G1 F10.0 Y0.6398
G2 X3.5664 I-0.0556 J0.0
G1 Y2.7657
G2 X3.6777 I0.0556 J0.0
G1 F5.0 X3.6277
G1 F10.0 Y0.6398 Z-0.1274
G2 X3.6164 Z-0.1275 I-0.0056 J0.0
G1 Y2.7657 Z-0.1349
G2 X3.6277 Z-0.135 I0.0056 J0.0
G1 F5.0 X3.6777
G1 F10.0 Y0.6398
G2 X3.5664 I-0.0556 J0.0
G1 Y2.7657
G2 X3.6777 I0.0556 J0.0
G1 F5.0 X3.6277
G1 F10.0 Y0.6398 Z-0.1424
G2 X3.6164 Z-0.1425 I-0.0056 J0.0
G1 Y2.7657 Z-0.1499
G2 X3.6277 Z-0.15 I0.0056 J0.0
G1 Y0.6398
G2 X3.6164 I-0.0056 J0.0
G1 Y2.7657
G2 X3.6277 I0.0056 J0.0
G1 F5.0 X3.6777
G1 F10.0 Y0.6398
G2 X3.5664 I-0.0556 J0.0
G1 Y2.7657
G2 X3.6777 I0.0556 J0.0
G0 Z0.125
G0 X2.1316
G0 Z0.0625
G1 F5.0 Z0.0
G1 F10.0 Y0.6398 Z-0.0074
G2 X2.1204 Z-0.0075 I-0.0056 J0.0
G1 Y2.7657 Z-0.0149
G2 X2.1316 Z-0.015 I0.0056 J0.0
G1 F5.0 X2.1816
G1 F10.0 Y0.6398
G2 X2.0704 I-0.0556 J0.0
G1 Y2.7657
G2 X2.1816 I0.0556 J0.0
G1 F5.0 X2.1316
G1 F10.0 Y0.6398 Z-0.0224
G2 X2.1204 Z-0.0225 I-0.0056 J0.0
G1 Y2.7657 Z-0.0299
G2 X2.1316 Z-0.03 I0.0056 J0.0
G1 F5.0 X2.1816
G1 F10.0 Y0.6398
G2 X2.0704 I-0.0556 J0.0
G1 Y2.7657
G2 X2.1816 I0.0556 J0.0
G1 F5.0 X2.1316
G1 F10.0 Y0.6398 Z-0.0374
G2 X2.1204 Z-0.0375 I-0.0056 J0.0
G1 Y2.7657 Z-0.0449
G2 X2.1316 Z-0.045 I0.0056 J0.0
G1 F5.0 X2.1816
G1 F10.0 Y0.6398
G2 X2.0704 I-0.0556 J0.0
G1 Y2.7657
G2 X2.1816 I0.0556 J0.0
G1 F5.0 X2.1316
G1 F10.0 Y0.6398 Z-0.0524
G2 X2.1204 Z-0.0525 I-0.0056 J0.0
G1 Y2.7657 Z-0.0599
G2 X2.1316 Z-0.06 I0.0056 J0.0
G1 F5.0 X2.1816
G1 F10.0 Y0.6398
G2 X2.0704 I-0.0556 J0.0
G1 Y2.7657
G2 X2.1816 I0.0556 J0.0
G1 F5.0 X2.1316
G1 F10.0 Y0.6398 Z-0.0674
G2 X2.1204 Z-0.0675 I-0.0056 J0.0
G1 Y2.7657 Z-0.0749
G2 X2.1316 Z-0.075 I0.0056 J0.0
G1 F5.0 X2.1816
G1 F10.0 Y0.6398
G2 X2.0704 I-0.0556 J0.0
G1 Y2.7657
G2 X2.1816 I0.0556 J0.0
G1 F5.0 X2.1316
G1 F10.0 Y0.6398 Z-0.0824
G2 X2.1204 Z-0.0825 I-0.0056 J0.0
G1 Y2.7657 Z-0.0899
G2 X2.1316 Z-0.09 I0.0056 J0.0
G1 F5.0 X2.1816
G1 F10.0 Y0.6398
G2 X2.0704 I-0.0556 J0.0
G1 Y2.7657
G2 X2.1816 I0.0556 J0.0
G1 F5.0 X2.1316
G1 F10.0 Y0.6398 Z-0.0974
G2 X2.1204 Z-0.0975 I-0.0056 J0.0
G1 Y2.7657 Z-0.1049
G2 X2.1316 Z-0.105 I0.0056 J0.0
G1 F5.0 X2.1816
G1 F10.0 Y0.6398
G2 X2.0704 I-0.0556 J0.0
G1 Y2.7657
G2 X2.1816 I0.0556 J0.0
G1 F5.0 X2.1316
G1 F10.0 Y0.6398 Z-0.1124
G2 X2.1204 Z-0.1125 I-0.0056 J0.0
G1 Y2.7657 Z-0.1199
G2 X2.1316 Z-0.12 I0.0056 J0.0
G1 F5.0 X2.1816
G1 F10.0 Y0.6398
G2 X2.0704 I-0.0556 J0.0
G1 Y2.7657
G2 X2.1816 I0.0556 J0.0
G1 F5.0 X2.1316
G1 F10.0 Y0.6398 Z-0.1274
G2 X2.1204 Z-0.1275 I-0.0056 J0.0
G1 Y2.7657 Z-0.1349
G2 X2.1316 Z-0.135 I0.0056 J0.0
G1 F5.0 X2.1816
G1 F10.0 Y0.6398
G2 X2.0704 I-0.0556 J0.0
G1 Y2.7657
G2 X2.1816 I0.0556 J0.0
G1 F5.0 X2.1316
G1 F10.0 Y0.6398 Z-0.1424
G2 X2.1204 Z-0.1425 I-0.0056 J0.0
G1 Y2.7657 Z-0.1499
G2 X2.1316 Z-0.15 I0.0056 J0.0
G1 Y0.6398
G2 X2.1204 I-0.0056 J0.0
G1 Y2.7657
G2 X2.1316 I0.0056 J0.0
G1 F5.0 X2.1816
G1 F10.0 Y0.6398
G2 X2.0704 I-0.0556 J0.0
G1 Y2.7657
G2 X2.1816 I0.0556 J0.0
G0 Z0.125
G0 X0.6355
G0 Z0.0625
G1 F5.0 Z0.0
G1 F10.0 Y0.6398 Z-0.0074
G2 X0.6243 Z-0.0075 I-0.0056 J0.0
G1 Y2.7657 Z-0.0149
G2 X0.6355 Z-0.015 I0.0056 J0.0
G1 F5.0 X0.6855
G1 F10.0 Y0.6398
G2 X0.5743 I-0.0556 J0.0
G1 Y2.7657
G2 X0.6855 I0.0556 J0.0
G1 F5.0 X0.6355
G1 F10.0 Y0.6398 Z-0.0224
G2 X0.6243 Z-0.0225 I-0.0056 J0.0
G1 Y2.7657 Z-0.0299
G2 X0.6355 Z-0.03 I0.0056 J0.0
G1 F5.0 X0.6855
G1 F10.0 Y0.6398
G2 X0.5743 I-0.0556 J0.0
G1 Y2.7657
G2 X0.6855 I0.0556 J0.0
G1 F5.0 X0.6355
G1 F10.0 Y0.6398 Z-0.0374
G2 X0.6243 Z-0.0375 I-0.0056 J0.0
G1 Y2.7657 Z-0.0449
G2 X0.6355 Z-0.045 I0.0056 J0.0
G1 F5.0 X0.6855
G1 F10.0 Y0.6398
G2 X0.5743 I-0.0556 J0.0
G1 Y2.7657
G2 X0.6855 I0.0556 J0.0
G1 F5.0 X0.6355
G1 F10.0 Y0.6398 Z-0.0524
G2 X0.6243 Z-0.0525 I-0.0056 J0.0
G1 Y2.7657 Z-0.0599
G2 X0.6355 Z-0.06 I0.0056 J0.0
G1 F5.0 X0.6855
G1 F10.0 Y0.6398
G2 X0.5743 I-0.0556 J0.0
G1 Y2.7657
G2 X0.6855 I0.0556 J0.0
G1 F5.0 X0.6355
G1 F10.0 Y0.6398 Z-0.0674
G2 X0.6243 Z-0.0675 I-0.0056 J0.0
G1 Y2.7657 Z-0.0749
G2 X0.6355 Z-0.075 I0.0056 J0.0
G1 F5.0 X0.6855
G1 F10.0 Y0.6398
G2 X0.5743 I-0.0556 J0.0
G1 Y2.7657
G2 X0.6855 I0.0556 J0.0
G1 F5.0 X0.6355
G1 F10.0 Y0.6398 Z-0.0824
G2 X0.6243 Z-0.0825 I-0.0056 J0.0
G1 Y2.7657 Z-0.0899
G2 X0.6355 Z-0.09 I0.0056 J0.0
G1 F5.0 X0.6855
G1 F10.0 Y0.6398
G2 X0.5743 I-0.0556 J0.0
G1 Y2.7657
G2 X0.6855 I0.0556 J0.0
G1 F5.0 X0.6355
G1 F10.0 Y0.6398 Z-0.0974
G2 X0.6243 Z-0.0975 I-0.0056 J0.0
G1 Y2.7657 Z-0.1049
G2 X0.6355 Z-0.105 I0.0056 J0.0
G1 F5.0 X0.6855
G1 F10.0 Y0.6398
G2 X0.5743 I-0.0556 J0.0
G1 Y2.7657
G2 X0.6855 I0.0556 J0.0
G1 F5.0 X0.6355
G1 F10.0 Y0.6398 Z-0.1124
G2 X0.6243 Z-0.1125 I-0.0056 J0.0
G1 Y2.7657 Z-0.1199
G2 X0.6355 Z-0.12 I0.0056 J0.0
G1 F5.0 X0.6855
G1 F10.0 Y0.6398
G2 X0.5743 I-0.0556 J0.0
G1 Y2.7657
G2 X0.6855 I0.0556 J0.0
G1 F5.0 X0.6355
G1 F10.0 Y0.6398 Z-0.1274
G2 X0.6243 Z-0.1275 I-0.0056 J0.0
G1 Y2.7657 Z-0.1349
G2 X0.6355 Z-0.135 I0.0056 J0.0
G1 F5.0 X0.6855
G1 F10.0 Y0.6398
G2 X0.5743 I-0.0556 J0.0
G1 Y2.7657
G2 X0.6855 I0.0556 J0.0
G1 F5.0 X0.6355
G1 F10.0 Y0.6398 Z-0.1424
G2 X0.6243 Z-0.1425 I-0.0056 J0.0
G1 Y2.7657 Z-0.1499
G2 X0.6355 Z-0.15 I0.0056 J0.0
G1 Y0.6398
G2 X0.6243 I-0.0056 J0.0
G1 Y2.7657
G2 X0.6355 I0.0056 J0.0
G1 F5.0 X0.6855
G1 F10.0 Y0.6398
G2 X0.5743 I-0.0556 J0.0
G1 Y2.7657
G2 X0.6855 I0.0556 J0.0
( Profile1 )
S1000
G0 Z0.125
G0 X8.1102 Y4.0487
G0 Z0.0625
G1 F5.0 Z0.0
G3 F10.0 X7.4966 Y3.435 Z-0.0015 I0.0 J-0.6137
G1 Y0.6004 Z-0.0059
G3 X8.1102 Y-0.0133 Z-0.0074 I0.6137 J0.0
G1 X8.189 Z-0.0075
G3 X8.8027 Y0.6004 Z-0.009 I0.0 J0.6137
G1 Y3.435 Z-0.0134
G3 X8.189 Y4.0487 Z-0.0149 I-0.6137 J0.0
G1 X8.1102 Z-0.015
G3 X7.4966 Y3.435 Z-0.0165 I0.0 J-0.6137
G1 Y0.6004 Z-0.0209
G3 X8.1102 Y-0.0133 Z-0.0224 I0.6137 J0.0
G1 X8.189 Z-0.0225
G3 X8.8027 Y0.6004 Z-0.024 I0.0 J0.6137
G1 Y3.435 Z-0.0284
G3 X8.189 Y4.0487 Z-0.0299 I-0.6137 J0.0
G1 X8.1102 Z-0.03
G3 X7.4966 Y3.435 Z-0.0315 I0.0 J-0.6137
G1 Y0.6004 Z-0.0359
G3 X8.1102 Y-0.0133 Z-0.0374 I0.6137 J0.0
G1 X8.189 Z-0.0375
G3 X8.8027 Y0.6004 Z-0.039 I0.0 J0.6137
G1 Y3.435 Z-0.0434
G3 X8.189 Y4.0487 Z-0.0449 I-0.6137 J0.0
G1 X8.1102 Z-0.045
G3 X7.4966 Y3.435 Z-0.0465 I0.0 J-0.6137
G1 Y0.6004 Z-0.0509
G3 X8.1102 Y-0.0133 Z-0.0524 I0.6137 J0.0
G1 X8.189 Z-0.0525
G3 X8.8027 Y0.6004 Z-0.054 I0.0 J0.6137
G1 Y3.435 Z-0.0584
G3 X8.189 Y4.0487 Z-0.0599 I-0.6137 J0.0
G1 X8.1102 Z-0.06
G3 X7.4966 Y3.435 Z-0.0615 I0.0 J-0.6137
G1 Y0.6004 Z-0.0659
G3 X8.1102 Y-0.0133 Z-0.0674 I0.6137 J0.0
G1 X8.189 Z-0.0675
G3 X8.8027 Y0.6004 Z-0.069 I0.0 J0.6137
G1 Y3.435 Z-0.0734
G3 X8.189 Y4.0487 Z-0.0749 I-0.6137 J0.0
G1 X8.1102 Z-0.075
G3 X7.4966 Y3.435 Z-0.0765 I0.0 J-0.6137
G1 Y0.6004 Z-0.0809
G3 X8.1102 Y-0.0133 Z-0.0824 I0.6137 J0.0
G1 X8.189 Z-0.0825
G3 X8.8027 Y0.6004 Z-0.084 I0.0 J0.6137
G1 Y3.435 Z-0.0884
G3 X8.189 Y4.0487 Z-0.0899 I-0.6137 J0.0
G1 X8.1102 Z-0.09
G3 X7.4966 Y3.435 Z-0.0915 I0.0 J-0.6137
G1 Y0.6004 Z-0.0959
G3 X8.1102 Y-0.0133 Z-0.0974 I0.6137 J0.0
G1 X8.189 Z-0.0975
G3 X8.8027 Y0.6004 Z-0.099 I0.0 J0.6137
G1 Y3.435 Z-0.1034
G3 X8.189 Y4.0487 Z-0.1049 I-0.6137 J0.0
G1 X8.1102 Z-0.105
G3 X7.4966 Y3.435 Z-0.1065 I0.0 J-0.6137
G1 Y0.6004 Z-0.1109
G3 X8.1102 Y-0.0133 Z-0.1124 I0.6137 J0.0
G1 X8.189 Z-0.1125
G3 X8.8027 Y0.6004 Z-0.114 I0.0 J0.6137
G1 Y3.435 Z-0.1184
G3 X8.189 Y4.0487 Z-0.1199 I-0.6137 J0.0
G1 X8.1102 Z-0.12
G3 X7.4966 Y3.435 Z-0.1215 I0.0 J-0.6137
G1 Y0.6004 Z-0.1259
G3 X8.1102 Y-0.0133 Z-0.1274 I0.6137 J0.0
G1 X8.189 Z-0.1275
G3 X8.8027 Y0.6004 Z-0.129 I0.0 J0.6137
G1 Y3.435 Z-0.1334
G3 X8.189 Y4.0487 Z-0.1349 I-0.6137 J0.0
G1 X8.1102 Z-0.135
G3 X7.4966 Y3.435 Z-0.1365 I0.0 J-0.6137
G1 Y0.6004 Z-0.1409
G3 X8.1102 Y-0.0133 Z-0.1424 I0.6137 J0.0
G1 X8.189 Z-0.1425
G3 X8.8027 Y0.6004 Z-0.144 I0.0 J0.6137
G1 Y3.435 Z-0.1484
G3 X8.189 Y4.0487 Z-0.1499 I-0.6137 J0.0
G1 X8.1102 Z-0.15
G3 X7.4966 Y3.435 I0.0 J-0.6137
G1 Y0.6004
G3 X8.1102 Y-0.0133 I0.6137 J0.0
G1 X8.189
G3 X8.8027 Y0.6004 I0.0 J0.6137
G1 Y3.435
G3 X8.189 Y4.0487 I-0.6137 J0.0
G1 X8.1102
G0 Z0.125
G0 X7.2561 Y3.6789
G0 Z0.0625
G1 F5.0 Z0.0
G3 F10.0 X6.6929 Y4.0487 Z-0.0011 I-0.5632 J-0.2438
G1 X6.6142 Z-0.0012
G3 X6.0005 Y3.435 Z-0.0027 I0.0 J-0.6137
G1 Y0.6004 Z-0.0071
G3 X6.6142 Y-0.0133 Z-0.0086 I0.6137 J0.0
G1 X6.6929 Z-0.0087
G3 X7.3066 Y0.6004 Z-0.0102 I0.0 J0.6137
G1 Y3.435 Z-0.0146
G3 X7.2561 Y3.6789 Z-0.015 I-0.6137 J0.0
G3 X6.6929 Y4.0487 Z-0.0161 I-0.5632 J-0.2438
G1 X6.6142 Z-0.0162
G3 X6.0005 Y3.435 Z-0.0177 I0.0 J-0.6137
G1 Y0.6004 Z-0.0221
G3 X6.6142 Y-0.0133 Z-0.0236 I0.6137 J0.0
G1 X6.6929 Z-0.0237
G3 X7.3066 Y0.6004 Z-0.0252 I0.0 J0.6137
G1 Y3.435 Z-0.0296
G3 X7.2561 Y3.6789 Z-0.03 I-0.6137 J0.0
G3 X6.6929 Y4.0487 Z-0.0311 I-0.5632 J-0.2438
G1 X6.6142 Z-0.0312
G3 X6.0005 Y3.435 Z-0.0327 I0.0 J-0.6137
G1 Y0.6004 Z-0.0371
G3 X6.6142 Y-0.0133 Z-0.0386 I0.6137 J0.0
G1 X6.6929 Z-0.0387
G3 X7.3066 Y0.6004 Z-0.0402 I0.0 J0.6137
G1 Y3.435 Z-0.0446
G3 X7.2561 Y3.6789 Z-0.045 I-0.6137 J0.0
G3 X6.6929 Y4.0487 Z-0.0461 I-0.5632 J-0.2438
G1 X6.6142 Z-0.0462
G3 X6.0005 Y3.435 Z-0.0477 I0.0 J-0.6137
G1 Y0.6004 Z-0.0521
G3 X6.6142 Y-0.0133 Z-0.0536 I0.6137 J0.0
G1 X6.6929 Z-0.0537
G3 X7.3066 Y0.6004 Z-0.0552 I0.0 J0.6137
G1 Y3.435 Z-0.0596
G3 X7.2561 Y3.6789 Z-0.06 I-0.6137 J0.0
G3 X6.6929 Y4.0487 Z-0.0611 I-0.5632 J-0.2438
G1 X6.6142 Z-0.0612
G3 X6.0005 Y3.435 Z-0.0627 I0.0 J-0.6137
G1 Y0.6004 Z-0.0671
G3 X6.6142 Y-0.0133 Z-0.0686 I0.6137 J0.0
G1 X6.6929 Z-0.0687
G3 X7.3066 Y0.6004 Z-0.0702 I0.0 J0.6137
G1 Y3.435 Z-0.0746
G3 X7.2561 Y3.6789 Z-0.075 I-0.6137 J0.0
G3 X6.6929 Y4.0487 Z-0.0761 I-0.5632 J-0.2438
G1 X6.6142 Z-0.0762
G3 X6.0005 Y3.435 Z-0.0777 I0.0 J-0.6137
G1 Y0.6004 Z-0.0821
G3 X6.6142 Y-0.0133 Z-0.0836 I0.6137 J0.0
G1 X6.6929 Z-0.0837
G3 X7.3066 Y0.6004 Z-0.0852 I0.0 J0.6137
G1 Y3.435 Z-0.0896
G3 X7.2561 Y3.6789 Z-0.09 I-0.6137 J0.0
G3 X6.6929 Y4.0487 Z-0.0911 I-0.5632 J-0.2438
G1 X6.6142 Z-0.0912
G3 X6.0005 Y3.435 Z-0.0927 I0.0 J-0.6137
G1 Y0.6004 Z-0.0971
G3 X6.6142 Y-0.0133 Z-0.0986 I0.6137 J0.0
G1 X6.6929 Z-0.0987
G3 X7.3066 Y0.6004 Z-0.1002 I0.0 J0.6137
G1 Y3.435 Z-0.1046
G3 X7.2561 Y3.6789 Z-0.105 I-0.6137 J0.0
G3 X6.6929 Y4.0487 Z-0.1061 I-0.5632 J-0.2438
G1 X6.6142 Z-0.1062
G3 X6.0005 Y3.435 Z-0.1077 I0.0 J-0.6137
G1 Y0.6004 Z-0.1121
G3 X6.6142 Y-0.0133 Z-0.1136 I0.6137 J0.0
G1 X6.6929 Z-0.1137
G3 X7.3066 Y0.6004 Z-0.1152 I0.0 J0.6137
G1 Y3.435 Z-0.1196
G3 X7.2561 Y3.6789 Z-0.12 I-0.6137 J0.0
G3 X6.6929 Y4.0487 Z-0.1211 I-0.5632 J-0.2438
G1 X6.6142 Z-0.1212
G3 X6.0005 Y3.435 Z-0.1227 I0.0 J-0.6137
G1 Y0.6004 Z-0.1271
G3 X6.6142 Y-0.0133 Z-0.1286 I0.6137 J0.0
G1 X6.6929 Z-0.1287
G3 X7.3066 Y0.6004 Z-0.1302 I0.0 J0.6137
G1 Y3.435 Z-0.1346
G3 X7.2561 Y3.6789 Z-0.135 I-0.6137 J0.0
G3 X6.6929 Y4.0487 Z-0.1361 I-0.5632 J-0.2438
G1 X6.6142 Z-0.1362
G3 X6.0005 Y3.435 Z-0.1377 I0.0 J-0.6137
G1 Y0.6004 Z-0.1421
G3 X6.6142 Y-0.0133 Z-0.1436 I0.6137 J0.0
G1 X6.6929 Z-0.1437
G3 X7.3066 Y0.6004 Z-0.1452 I0.0 J0.6137
G1 Y3.435 Z-0.1496
G3 X7.2561 Y3.6789 Z-0.15 I-0.6137 J0.0
G3 X6.6929 Y4.0487 I-0.5632 J-0.2438
G1 X6.6142
G3 X6.0005 Y3.435 I0.0 J-0.6137
G1 Y0.6004
G3 X6.6142 Y-0.0133 I0.6137 J0.0
G1 X6.6929
G3 X7.3066 Y0.6004 I0.0 J0.6137
G1 Y3.435
G3 X7.2561 Y3.6789 I-0.6137 J0.0
G0 Z0.125
G0 X5.8063 Y3.5072
G0 Z0.0625
G1 F5.0 Z0.0
G3 F10.0 X5.1969 Y4.0487 Z-0.0014 I-0.6094 J-0.0722
G1 X5.1181 Z-0.0015
G3 X4.5044 Y3.435 Z-0.003 I0.0 J-0.6137
G1 Y0.6004 Z-0.0074
G3 X5.1181 Y-0.0133 Z-0.0089 I0.6137 J0.0
G1 X5.1969 Z-0.009
G3 X5.8105 Y0.6004 Z-0.0105 I0.0 J0.6137
G1 Y3.435 Z-0.0149
G3 X5.8063 Y3.5072 Z-0.015 I-0.6137 J0.0
G3 X5.1969 Y4.0487 Z-0.0164 I-0.6094 J-0.0722
G1 X5.1181 Z-0.0165
G3 X4.5044 Y3.435 Z-0.018 I0.0 J-0.6137
G1 Y0.6004 Z-0.0224
G3 X5.1181 Y-0.0133 Z-0.0239 I0.6137 J0.0
G1 X5.1969 Z-0.024
G3 X5.8105 Y0.6004 Z-0.0255 I0.0 J0.6137
G1 Y3.435 Z-0.0299
G3 X5.8063 Y3.5072 Z-0.03 I-0.6137 J0.0
G3 X5.1969 Y4.0487 Z-0.0314 I-0.6094 J-0.0722
G1 X5.1181 Z-0.0315
G3 X4.5044 Y3.435 Z-0.033 I0.0 J-0.6137
G1 Y0.6004 Z-0.0374
G3 X5.1181 Y-0.0133 Z-0.0389 I0.6137 J0.0
G1 X5.1969 Z-0.039
G3 X5.8105 Y0.6004 Z-0.0405 I0.0 J0.6137
G1 Y3.435 Z-0.0449
G3 X5.8063 Y3.5072 Z-0.045 I-0.6137 J0.0
G3 X5.1969 Y4.0487 Z-0.0464 I-0.6094 J-0.0722
G1 X5.1181 Z-0.0465
G3 X4.5044 Y3.435 Z-0.048 I0.0 J-0.6137
G1 Y0.6004 Z-0.0524
G3 X5.1181 Y-0.0133 Z-0.0539 I0.6137 J0.0
G1 X5.1969 Z-0.054
G3 X5.8105 Y0.6004 Z-0.0555 I0.0 J0.6137
G1 Y3.435 Z-0.0599
G3 X5.8063 Y3.5072 Z-0.06 I-0.6137 J0.0
G3 X5.1969 Y4.0487 Z-0.0614 I-0.6094 J-0.0722
G1 X5.1181 Z-0.0615
G3 X4.5044 Y3.435 Z-0.063 I0.0 J-0.6137
G1 Y0.6004 Z-0.0674
G3 X5.1181 Y-0.0133 Z-0.0689 I0.6137 J0.0
G1 X5.1969 Z-0.069
G3 X5.8105 Y0.6004 Z-0.0705 I0.0 J0.6137
G1 Y3.435 Z-0.0749
G3 X5.8063 Y3.5072 Z-0.075 I-0.6137 J0.0
G3 X5.1969 Y4.0487 Z-0.0764 I-0.6094 J-0.0722
G1 X5.1181 Z-0.0765
G3 X4.5044 Y3.435 Z-0.078 I0.0 J-0.6137
G1 Y0.6004 Z-0.0824
G3 X5.1181 Y-0.0133 Z-0.0839 I0.6137 J0.0
G1 X5.1969 Z-0.084
G3 X5.8105 Y0.6004 Z-0.0855 I0.0 J0.6137
G1 Y3.435 Z-0.0899
G3 X5.8063 Y3.5072 Z-0.09 I-0.6137 J0.0
G3 X5.1969 Y4.0487 Z-0.0914 I-0.6094 J-0.0722
G1 X5.1181 Z-0.0915
G3 X4.5044 Y3.435 Z-0.093 I0.0 J-0.6137
G1 Y0.6004 Z-0.0974
G3 X5.1181 Y-0.0133 Z-0.0989 I0.6137 J0.0
G1 X5.1969 Z-0.099
G3 X5.8105 Y0.6004 Z-0.1005 I0.0 J0.6137
G1 Y3.435 Z-0.1049
G3 X5.8063 Y3.5072 Z-0.105 I-0.6137 J0.0
G3 X5.1969 Y4.0487 Z-0.1064 I-0.6094 J-0.0722
G1 X5.1181 Z-0.1065
G3 X4.5044 Y3.435 Z-0.108 I0.0 J-0.6137
G1 Y0.6004 Z-0.1124
G3 X5.1181 Y-0.0133 Z-0.1139 I0.6137 J0.0
G1 X5.1969 Z-0.114
G3 X5.8105 Y0.6004 Z-0.1155 I0.0 J0.6137
G1 Y3.435 Z-0.1199
G3 X5.8063 Y3.5072 Z-0.12 I-0.6137 J0.0
G3 X5.1969 Y4.0487 Z-0.1214 I-0.6094 J-0.0722
G1 X5.1181 Z-0.1215
G3 X4.5044 Y3.435 Z-0.123 I0.0 J-0.6137
G1 Y0.6004 Z-0.1274
G3 X5.1181 Y-0.0133 Z-0.1289 I0.6137 J0.0
G1 X5.1969 Z-0.129
G3 X5.8105 Y0.6004 Z-0.1305 I0.0 J0.6137
G1 Y3.435 Z-0.1349
G3 X5.8063 Y3.5072 Z-0.135 I-0.6137 J0.0
G3 X5.1969 Y4.0487 Z-0.1364 I-0.6094 J-0.0722
G1 X5.1181 Z-0.1365
G3 X4.5044 Y3.435 Z-0.138 I0.0 J-0.6137
G1 Y0.6004 Z-0.1424
G3 X5.1181 Y-0.0133 Z-0.1439 I0.6137 J0.0
G1 X5.1969 Z-0.144
G3 X5.8105 Y0.6004 Z-0.1455 I0.0 J0.6137
G1 Y3.435 Z-0.1499
G3 X5.8063 Y3.5072 Z-0.15 I-0.6137 J0.0
G3 X5.1969 Y4.0487 I-0.6094 J-0.0722
G1 X5.1181
G3 X4.5044 Y3.435 I0.0 J-0.6137
G1 Y0.6004
G3 X5.1181 Y-0.0133 I0.6137 J0.0
G1 X5.1969
G3 X5.8105 Y0.6004 I0.0 J0.6137
G1 Y3.435
G3 X5.8063 Y3.5072 I-0.6137 J0.0
G0 Z0.125
G0 X4.2748 Y3.4557
G0 Z0.0625
G1 F5.0 Z0.0
G3 F10.0 X3.6614 Y4.0487 Z-0.0015 I-0.6133 J-0.0206
G1 X3.5827 Z-0.0016
G3 X2.969 Y3.435 Z-0.0031 I0.0 J-0.6137
G1 Y0.6004 Z-0.0075
G3 X3.5827 Y-0.0133 Z-0.009 I0.6137 J0.0
G1 X3.6614 Z-0.0091
G3 X4.2751 Y0.6004 Z-0.0106 I0.0 J0.6137
G1 Y3.435 Z-0.015
G3 X4.2748 Y3.4557 I-0.6137 J0.0
G3 X3.6614 Y4.0487 Z-0.0165 I-0.6133 J-0.0206
G1 X3.5827 Z-0.0166
G3 X2.969 Y3.435 Z-0.0181 I0.0 J-0.6137
G1 Y0.6004 Z-0.0225
G3 X3.5827 Y-0.0133 Z-0.024 I0.6137 J0.0
G1 X3.6614 Z-0.0241
G3 X4.2751 Y0.6004 Z-0.0256 I0.0 J0.6137
G1 Y3.435 Z-0.03
G3 X4.2748 Y3.4557 I-0.6137 J0.0
G3 X3.6614 Y4.0487 Z-0.0315 I-0.6133 J-0.0206
G1 X3.5827 Z-0.0316
G3 X2.969 Y3.435 Z-0.0331 I0.0 J-0.6137
G1 Y0.6004 Z-0.0375
G3 X3.5827 Y-0.0133 Z-0.039 I0.6137 J0.0
G1 X3.6614 Z-0.0391
G3 X4.2751 Y0.6004 Z-0.0406 I0.0 J0.6137
G1 Y3.435 Z-0.045
G3 X4.2748 Y3.4557 I-0.6137 J0.0
G3 X3.6614 Y4.0487 Z-0.0465 I-0.6133 J-0.0206
G1 X3.5827 Z-0.0466
G3 X2.969 Y3.435 Z-0.0481 I0.0 J-0.6137
G1 Y0.6004 Z-0.0525
G3 X3.5827 Y-0.0133 Z-0.054 I0.6137 J0.0
G1 X3.6614 Z-0.0541
G3 X4.2751 Y0.6004 Z-0.0556 I0.0 J0.6137
G1 Y3.435 Z-0.06
G3 X4.2748 Y3.4557 I-0.6137 J0.0
G3 X3.6614 Y4.0487 Z-0.0615 I-0.6133 J-0.0206
G1 X3.5827 Z-0.0616
G3 X2.969 Y3.435 Z-0.0631 I0.0 J-0.6137
G1 Y0.6004 Z-0.0675
G3 X3.5827 Y-0.0133 Z-0.069 I0.6137 J0.0
G1 X3.6614 Z-0.0691
G3 X4.2751 Y0.6004 Z-0.0706 I0.0 J0.6137
G1 Y3.435 Z-0.075
G3 X4.2748 Y3.4557 I-0.6137 J0.0
G3 X3.6614 Y4.0487 Z-0.0765 I-0.6133 J-0.0206
G1 X3.5827 Z-0.0766
G3 X2.969 Y3.435 Z-0.0781 I0.0 J-0.6137
G1 Y0.6004 Z-0.0825
G3 X3.5827 Y-0.0133 Z-0.084 I0.6137 J0.0
G1 X3.6614 Z-0.0841
G3 X4.2751 Y0.6004 Z-0.0856 I0.0 J0.6137
G1 Y3.435 Z-0.09
G3 X4.2748 Y3.4557 I-0.6137 J0.0
G3 X3.6614 Y4.0487 Z-0.0915 I-0.6133 J-0.0206
G1 X3.5827 Z-0.0916
G3 X2.969 Y3.435 Z-0.0931 I0.0 J-0.6137
G1 Y0.6004 Z-0.0975
G3 X3.5827 Y-0.0133 Z-0.099 I0.6137 J0.0
G1 X3.6614 Z-0.0991
G3 X4.2751 Y0.6004 Z-0.1006 I0.0 J0.6137
G1 Y3.435 Z-0.105
G3 X4.2748 Y3.4557 I-0.6137 J0.0
G3 X3.6614 Y4.0487 Z-0.1065 I-0.6133 J-0.0206
G1 X3.5827 Z-0.1066
G3 X2.969 Y3.435 Z-0.1081 I0.0 J-0.6137
G1 Y0.6004 Z-0.1125
G3 X3.5827 Y-0.0133 Z-0.114 I0.6137 J0.0
G1 X3.6614 Z-0.1141
G3 X4.2751 Y0.6004 Z-0.1156 I0.0 J0.6137
G1 Y3.435 Z-0.12
G3 X4.2748 Y3.4557 I-0.6137 J0.0
G3 X3.6614 Y4.0487 Z-0.1215 I-0.6133 J-0.0206
G1 X3.5827 Z-0.1216
G3 X2.969 Y3.435 Z-0.1231 I0.0 J-0.6137
G1 Y0.6004 Z-0.1275
G3 X3.5827 Y-0.0133 Z-0.129 I0.6137 J0.0
G1 X3.6614 Z-0.1291
G3 X4.2751 Y0.6004 Z-0.1306 I0.0 J0.6137
G1 Y3.435 Z-0.135
G3 X4.2748 Y3.4557 I-0.6137 J0.0
G3 X3.6614 Y4.0487 Z-0.1365 I-0.6133 J-0.0206
G1 X3.5827 Z-0.1366
G3 X2.969 Y3.435 Z-0.1381 I0.0 J-0.6137
G1 Y0.6004 Z-0.1425
G3 X3.5827 Y-0.0133 Z-0.144 I0.6137 J0.0
G1 X3.6614 Z-0.1441
G3 X4.2751 Y0.6004 Z-0.1456 I0.0 J0.6137
G1 Y3.435 Z-0.15
G3 X4.2748 Y3.4557 I-0.6137 J0.0
G3 X3.6614 Y4.0487 I-0.6133 J-0.0206
G1 X3.5827
G3 X2.969 Y3.435 I0.0 J-0.6137
G1 Y0.6004
G3 X3.5827 Y-0.0133 I0.6137 J0.0
G1 X3.6614
G3 X4.2751 Y0.6004 I0.0 J0.6137
G1 Y3.435
G3 X4.2748 Y3.4557 I-0.6137 J0.0
G0 Z0.125
G0 X2.779 Y3.441
G0 Z0.0625
G1 F5.0 Z0.0
G3 F10.0 X2.1654 Y4.0487 Z-0.0015 I-0.6137 J-0.006
G1 X2.0866 Z-0.0016
G3 X1.4729 Y3.435 Z-0.0031 I0.0 J-0.6137
G1 Y0.6004 Z-0.0075
G3 X2.0866 Y-0.0133 Z-0.009 I0.6137 J0.0
G1 X2.1654 Z-0.0091
G3 X2.779 Y0.6004 Z-0.0106 I0.0 J0.6137
G1 Y3.435 Z-0.015
G3 Y3.441 I-0.6137 J0.0
G3 X2.1654 Y4.0487 Z-0.0165 I-0.6137 J-0.006
G1 X2.0866 Z-0.0166
G3 X1.4729 Y3.435 Z-0.0181 I0.0 J-0.6137
G1 Y0.6004 Z-0.0225
G3 X2.0866 Y-0.0133 Z-0.024 I0.6137 J0.0
G1 X2.1654 Z-0.0241
G3 X2.779 Y0.6004 Z-0.0256 I0.0 J0.6137
G1 Y3.435 Z-0.03
G3 Y3.441 I-0.6137 J0.0
G3 X2.1654 Y4.0487 Z-0.0315 I-0.6137 J-0.006
G1 X2.0866 Z-0.0316
G3 X1.4729 Y3.435 Z-0.0331 I0.0 J-0.6137
G1 Y0.6004 Z-0.0375
G3 X2.0866 Y-0.0133 Z-0.039 I0.6137 J0.0
G1 X2.1654 Z-0.0391
G3 X2.779 Y0.6004 Z-0.0406 I0.0 J0.6137
G1 Y3.435 Z-0.045
G3 Y3.441 I-0.6137 J0.0
G3 X2.1654 Y4.0487 Z-0.0465 I-0.6137 J-0.006
G1 X2.0866 Z-0.0466
G3 X1.4729 Y3.435 Z-0.0481 I0.0 J-0.6137
G1 Y0.6004 Z-0.0525
G3 X2.0866 Y-0.0133 Z-0.054 I0.6137 J0.0
G1 X2.1654 Z-0.0541
G3 X2.779 Y0.6004 Z-0.0556 I0.0 J0.6137
G1 Y3.435 Z-0.06
G3 Y3.441 I-0.6137 J0.0
G3 X2.1654 Y4.0487 Z-0.0615 I-0.6137 J-0.006
G1 X2.0866 Z-0.0616
G3 X1.4729 Y3.435 Z-0.0631 I0.0 J-0.6137
G1 Y0.6004 Z-0.0675
G3 X2.0866 Y-0.0133 Z-0.069 I0.6137 J0.0
G1 X2.1654 Z-0.0691
G3 X2.779 Y0.6004 Z-0.0706 I0.0 J0.6137
G1 Y3.435 Z-0.075
G3 Y3.441 I-0.6137 J0.0
G3 X2.1654 Y4.0487 Z-0.0765 I-0.6137 J-0.006
G1 X2.0866 Z-0.0766
G3 X1.4729 Y3.435 Z-0.0781 I0.0 J-0.6137
G1 Y0.6004 Z-0.0825
G3 X2.0866 Y-0.0133 Z-0.084 I0.6137 J0.0
G1 X2.1654 Z-0.0841
G3 X2.779 Y0.6004 Z-0.0856 I0.0 J0.6137
G1 Y3.435 Z-0.09
G3 Y3.441 I-0.6137 J0.0
G3 X2.1654 Y4.0487 Z-0.0915 I-0.6137 J-0.006
G1 X2.0866 Z-0.0916
G3 X1.4729 Y3.435 Z-0.0931 I0.0 J-0.6137
G1 Y0.6004 Z-0.0975
G3 X2.0866 Y-0.0133 Z-0.099 I0.6137 J0.0
G1 X2.1654 Z-0.0991
G3 X2.779 Y0.6004 Z-0.1006 I0.0 J0.6137
G1 Y3.435 Z-0.105
G3 Y3.441 I-0.6137 J0.0
G3 X2.1654 Y4.0487 Z-0.1065 I-0.6137 J-0.006
G1 X2.0866 Z-0.1066
G3 X1.4729 Y3.435 Z-0.1081 I0.0 J-0.6137
G1 Y0.6004 Z-0.1125
G3 X2.0866 Y-0.0133 Z-0.114 I0.6137 J0.0
G1 X2.1654 Z-0.1141
G3 X2.779 Y0.6004 Z-0.1156 I0.0 J0.6137
G1 Y3.435 Z-0.12
G3 Y3.441 I-0.6137 J0.0
G3 X2.1654 Y4.0487 Z-0.1215 I-0.6137 J-0.006
G1 X2.0866 Z-0.1216
G3 X1.4729 Y3.435 Z-0.1231 I0.0 J-0.6137
G1 Y0.6004 Z-0.1275
G3 X2.0866 Y-0.0133 Z-0.129 I0.6137 J0.0
G1 X2.1654 Z-0.1291
G3 X2.779 Y0.6004 Z-0.1306 I0.0 J0.6137
G1 Y3.435 Z-0.135
G3 Y3.441 I-0.6137 J0.0
G3 X2.1654 Y4.0487 Z-0.1365 I-0.6137 J-0.006
G1 X2.0866 Z-0.1366
G3 X1.4729 Y3.435 Z-0.1381 I0.0 J-0.6137
G1 Y0.6004 Z-0.1425
G3 X2.0866 Y-0.0133 Z-0.144 I0.6137 J0.0
G1 X2.1654 Z-0.1441
G3 X2.779 Y0.6004 Z-0.1456 I0.0 J0.6137
G1 Y3.435 Z-0.15
G3 Y3.441 I-0.6137 J0.0
G3 X2.1654 Y4.0487 I-0.6137 J-0.006
G1 X2.0866
G3 X1.4729 Y3.435 I0.0 J-0.6137
G1 Y0.6004
G3 X2.0866 Y-0.0133 I0.6137 J0.0
G1 X2.1654
G3 X2.779 Y0.6004 I0.0 J0.6137
G1 Y3.435
G3 Y3.441 I-0.6137 J0.0
G0 Z0.125
G0 X1.283 Y3.4368
G0 Z0.0625
G1 F5.0 Z0.0
G3 F10.0 X0.6693 Y4.0487 Z-0.0015 I-0.6137 J-0.0017
G1 X0.5906 Z-0.0016
G3 X-0.0231 Y3.435 Z-0.0031 I0.0 J-0.6137
G1 Y0.6004 Z-0.0075
G3 X0.5906 Y-0.0133 Z-0.009 I0.6137 J0.0
G1 X0.6693 Z-0.0091
G3 X1.283 Y0.6004 Z-0.0106 I0.0 J0.6137
G1 Y3.435 Z-0.015
G3 Y3.4368 I-0.6137 J0.0
G3 X0.6693 Y4.0487 Z-0.0165 I-0.6137 J-0.0017
G1 X0.5906 Z-0.0166
G3 X-0.0231 Y3.435 Z-0.0181 I0.0 J-0.6137
G1 Y0.6004 Z-0.0225
G3 X0.5906 Y-0.0133 Z-0.024 I0.6137 J0.0
G1 X0.6693 Z-0.0241
G3 X1.283 Y0.6004 Z-0.0256 I0.0 J0.6137
G1 Y3.435 Z-0.03
G3 Y3.4368 I-0.6137 J0.0
G3 X0.6693 Y4.0487 Z-0.0315 I-0.6137 J-0.0017
G1 X0.5906 Z-0.0316
G3 X-0.0231 Y3.435 Z-0.0331 I0.0 J-0.6137
G1 Y0.6004 Z-0.0375
G3 X0.5906 Y-0.0133 Z-0.039 I0.6137 J0.0
G1 X0.6693 Z-0.0391
G3 X1.283 Y0.6004 Z-0.0406 I0.0 J0.6137
G1 Y3.435 Z-0.045
G3 Y3.4368 I-0.6137 J0.0
G3 X0.6693 Y4.0487 Z-0.0465 I-0.6137 J-0.0017
G1 X0.5906 Z-0.0466
G3 X-0.0231 Y3.435 Z-0.0481 I0.0 J-0.6137
G1 Y0.6004 Z-0.0525
G3 X0.5906 Y-0.0133 Z-0.054 I0.6137 J0.0
G1 X0.6693 Z-0.0541
G3 X1.283 Y0.6004 Z-0.0556 I0.0 J0.6137
G1 Y3.435 Z-0.06
G3 Y3.4368 I-0.6137 J0.0
G3 X0.6693 Y4.0487 Z-0.0615 I-0.6137 J-0.0017
G1 X0.5906 Z-0.0616
G3 X-0.0231 Y3.435 Z-0.0631 I0.0 J-0.6137
G1 Y0.6004 Z-0.0675
G3 X0.5906 Y-0.0133 Z-0.069 I0.6137 J0.0
G1 X0.6693 Z-0.0691
G3 X1.283 Y0.6004 Z-0.0706 I0.0 J0.6137
G1 Y3.435 Z-0.075
G3 Y3.4368 I-0.6137 J0.0
G3 X0.6693 Y4.0487 Z-0.0765 I-0.6137 J-0.0017
G1 X0.5906 Z-0.0766
G3 X-0.0231 Y3.435 Z-0.0781 I0.0 J-0.6137
G1 Y0.6004 Z-0.0825
G3 X0.5906 Y-0.0133 Z-0.084 I0.6137 J0.0
G1 X0.6693 Z-0.0841
G3 X1.283 Y0.6004 Z-0.0856 I0.0 J0.6137
G1 Y3.435 Z-0.09
G3 Y3.4368 I-0.6137 J0.0
G3 X0.6693 Y4.0487 Z-0.0915 I-0.6137 J-0.0017
G1 X0.5906 Z-0.0916
G3 X-0.0231 Y3.435 Z-0.0931 I0.0 J-0.6137
G1 Y0.6004 Z-0.0975
G3 X0.5906 Y-0.0133 Z-0.099 I0.6137 J0.0
G1 X0.6693 Z-0.0991
G3 X1.283 Y0.6004 Z-0.1006 I0.0 J0.6137
G1 Y3.435 Z-0.105
G3 Y3.4368 I-0.6137 J0.0
G3 X0.6693 Y4.0487 Z-0.1065 I-0.6137 J-0.0017
G1 X0.5906 Z-0.1066
G3 X-0.0231 Y3.435 Z-0.1081 I0.0 J-0.6137
G1 Y0.6004 Z-0.1125
G3 X0.5906 Y-0.0133 Z-0.114 I0.6137 J0.0
G1 X0.6693 Z-0.1141
G3 X1.283 Y0.6004 Z-0.1156 I0.0 J0.6137
G1 Y3.435 Z-0.12
G3 Y3.4368 I-0.6137 J0.0
G3 X0.6693 Y4.0487 Z-0.1215 I-0.6137 J-0.0017
G1 X0.5906 Z-0.1216
G3 X-0.0231 Y3.435 Z-0.1231 I0.0 J-0.6137
G1 Y0.6004 Z-0.1275
G3 X0.5906 Y-0.0133 Z-0.129 I0.6137 J0.0
G1 X0.6693 Z-0.1291
G3 X1.283 Y0.6004 Z-0.1306 I0.0 J0.6137
G1 Y3.435 Z-0.135
G3 Y3.4368 I-0.6137 J0.0
G3 X0.6693 Y4.0487 Z-0.1365 I-0.6137 J-0.0017
G1 X0.5906 Z-0.1366
G3 X-0.0231 Y3.435 Z-0.1381 I0.0 J-0.6137
G1 Y0.6004 Z-0.1425
G3 X0.5906 Y-0.0133 Z-0.144 I0.6137 J0.0
G1 X0.6693 Z-0.1441
G3 X1.283 Y0.6004 Z-0.1456 I0.0 J0.6137
G1 Y3.435 Z-0.15
G3 Y3.4368 I-0.6137 J0.0
G3 X0.6693 Y4.0487 I-0.6137 J-0.0017
G1 X0.5906
G3 X-0.0231 Y3.435 I0.0 J-0.6137
G1 Y0.6004
G3 X0.5906 Y-0.0133 I0.6137 J0.0
G1 X0.6693
G3 X1.283 Y0.6004 I0.0 J0.6137
G1 Y3.435
G3 Y3.4368 I-0.6137 J0.0
G0 Z0.125
M5
M30
